; generated by Slic3r 1.2.9 on 2016-02-24 at 20:20:30

; external perimeters extrusion width = 0.50mm
; perimeters extrusion width = 0.58mm
; infill extrusion width = 0.58mm
; solid infill extrusion width = 0.58mm
; top infill extrusion width = 0.58mm

M107
M104 S205 ; set temperature
G28 ; home all axes
G1 Z5 F5000 ; lift nozzle

M109 S205 ; wait for temperature to be reached
G21 ; set units to millimeters
G90 ; use absolute coordinates
M82 ; use absolute distances for extrusion
G92 E0
G1 Z0.500 F7800.000
G1 E-2.00000 F2400.00000
G92 E0
G1 X87.490 Y88.867 F7800.000
G1 E2.00000 F2400.00000
G1 X88.685 Y87.695 E2.10566 F1800.000
G1 X89.660 Y87.044 E2.17970
G1 X90.499 Y86.581 E2.24025
G1 X91.385 Y86.171 E2.30184
G1 X91.760 Y86.029 E2.32720
G1 X92.725 Y85.730 E2.39100
G1 X94.548 Y85.480 E2.50720
G1 X104.880 Y85.454 E3.15962
G1 X105.620 Y85.479 E3.20634 F1800.000
G1 X107.062 Y85.680 E3.29829
G1 X107.419 Y85.769 E3.32154
G1 X108.200 Y86.015 E3.37325
G1 X108.568 Y86.154 E3.39807
G1 X109.261 Y86.463 E3.44597
G1 X109.527 Y86.599 E3.46483
G1 X110.260 Y87.034 E3.51867
G1 X110.735 Y87.358 E3.55499
G1 X111.211 Y87.712 E3.59244
G1 X111.495 Y87.944 E3.61560
G1 X112.183 Y88.575 E3.67452
G1 X112.933 Y89.434 E3.74657
G1 X113.429 Y90.107 E3.79939
G1 X113.777 Y90.616 E3.83827
G1 X114.339 Y91.640 E3.91205
G1 X114.589 Y92.230 E3.95252
G1 X114.966 Y93.224 E4.01963
G1 X115.259 Y94.147 E4.08078
G1 X115.443 Y94.922 E4.13107
G1 X115.631 Y95.995 E4.19986
G1 X115.716 Y96.670 E4.24283
G1 X115.777 Y97.640 E4.30423
G1 X115.930 Y107.506 E4.92728
G1 X115.661 Y109.524 E5.05585
G1 X114.600 Y111.705 E5.20898
G1 X113.556 Y113.133 E5.32066
G1 X112.927 Y113.846 E5.38072
G1 X111.849 Y114.902 E5.47599
G1 X111.431 Y115.257 E5.51062
G1 X110.676 Y115.848 E5.57118
G1 X110.236 Y116.165 E5.60542
G1 X109.738 Y116.483 E5.64273
G1 X108.957 Y116.939 E5.69985
G1 X108.028 Y117.448 E5.76673
G1 X107.526 Y117.680 E5.80165
G1 X106.086 Y118.273 E5.90000
G1 X105.673 Y118.416 E5.92758
G1 X104.412 Y118.798 E6.01077
G1 X103.650 Y118.984 E6.06032
G1 X102.201 Y119.252 E6.15335
G1 X101.322 Y119.356 E6.20924
G1 X99.917 Y119.380 E6.29800
G1 X98.854 Y119.367 E6.36513
G1 X98.303 Y119.328 E6.40001
G1 X97.805 Y119.255 E6.43180
G1 X96.087 Y118.934 E6.54214
G1 X94.423 Y118.454 E6.65149
G1 X93.759 Y118.220 E6.69597
G1 X92.564 Y117.729 E6.77754
G1 X92.061 Y117.498 E6.81249
G1 X90.582 Y116.700 E6.91860
G1 X89.931 Y116.292 E6.96712
G1 X88.605 Y115.300 E7.07167
G1 X88.037 Y114.818 E7.11873
G1 X87.015 Y113.808 E7.20947
G1 X86.411 Y113.122 E7.26717
G1 X85.363 Y111.694 E7.37903
G1 X84.341 Y109.589 E7.52678
G1 X84.070 Y107.778 E7.64238
G1 X84.199 Y97.761 E8.27498
G1 X84.255 Y96.766 E8.33795
G1 X84.315 Y96.199 E8.37395
G1 X84.443 Y95.357 E8.42769
G1 X84.649 Y94.359 E8.49208
G1 X84.860 Y93.587 E8.54257
G1 X85.194 Y92.612 E8.60768
G1 X85.618 Y91.686 E8.67196
G1 X86.222 Y90.627 E8.74897
G1 X86.854 Y89.690 E8.82034
G1 X87.443 Y88.926 E8.88128
G1 E6.88128 F2400.00000
G92 E0
G1 X107.041 Y109.267 F7800.000
G1 E2.00000 F2400.00000
G1 X106.853 Y109.452 E2.01663 F1800.000
G1 X106.136 Y110.012 E2.07410
G1 X105.228 Y110.556 E2.14096
G1 X104.671 Y110.860 E2.18102
G1 X103.470 Y111.358 E2.26313
G1 X102.298 Y111.714 E2.34046
G1 X100.898 Y111.974 E2.43039
G1 X99.098 Y111.977 E2.54403
G1 X97.709 Y111.721 E2.63326
G1 X96.547 Y111.373 E2.70981
G1 X95.400 Y110.901 E2.78814
G1 X94.211 Y110.258 E2.87350
G1 X93.307 Y109.586 E2.94465
G1 X93.454 Y109.210 E2.97016
G1 X93.827 Y109.246 E2.99379
G1 X95.153 Y109.813 E3.08488
G1 X97.245 Y110.792 E3.23074
G1 X102.709 Y110.790 E3.57579
G1 X103.932 Y110.220 E3.66096
G1 X104.371 Y110.100 E3.68971
G1 X104.553 Y109.941 E3.70499
G1 X106.783 Y108.896 E3.86047
G1 X106.998 Y109.205 E3.88425
G1 X106.783 Y109.319 F7800.000
G1 X100.355 Y111.295 F7800.000
G1 X99.981 Y111.391 F7800.000
G1 X98.561 Y111.332 F7800.000
G1 X98.165 Y111.297 F7800.000
G1 X92.987 Y109.032 F7800.000
G1 X92.301 Y108.553 E3.93710 F1800.000
G1 X91.152 Y107.609 E4.03099
G1 E2.03099 F2400.00000
G92 E0
G1 X95.858 Y109.589 F7800.000
G1 X98.105 Y106.940 F7800.000
G1 X99.015 Y106.681 F7800.000
G1 X99.982 Y106.330 F7800.000
G1 X99.981 Y106.233 F7800.000
G1 X102.666 Y103.410 F7800.000
G1 X104.799 Y102.052 F7800.000
G1 E2.00000 F2400.00000
G1 X104.500 Y101.979 E2.01943 F1800.000
G1 X104.286 Y101.797 E2.03711
G1 X104.082 Y101.581 E2.05588
G1 X103.744 Y101.063 E2.09497
G1 X103.607 Y100.764 E2.11576
G1 X103.473 Y100.399 E2.14029
G1 X103.397 Y100.107 E2.15932
G1 X103.227 Y99.252 E2.21438
G1 X103.194 Y98.316 E2.27353
G1 X103.221 Y97.600 E2.31875
G1 X103.276 Y97.079 E2.35183
G1 X103.527 Y96.090 E2.41626
G1 X103.623 Y95.870 E2.43145
G1 X103.784 Y95.556 E2.45374
G1 X104.035 Y95.164 E2.48309
G1 X104.335 Y94.863 E2.50996
G1 X104.598 Y94.704 E2.52935
G1 X104.796 Y94.634 E2.54260
G1 X105.070 Y94.643 E2.55990
G1 X105.202 Y94.694 E2.56880
G1 X105.491 Y94.890 E2.59090
G1 X105.640 Y95.012 E2.60304
G1 X106.014 Y95.533 E2.64352
G1 X106.356 Y96.408 E2.70286
G1 X106.426 Y96.644 E2.71840
G1 X106.573 Y97.475 E2.77170
G1 X106.601 Y97.843 E2.79503
G1 X106.608 Y98.710 E2.84978
G1 X106.571 Y99.326 E2.88871
G1 X106.331 Y100.393 E2.95777
G1 X106.257 Y100.626 E2.97322
G1 X105.881 Y101.386 E3.02678
G1 X105.753 Y101.575 E3.04115
G1 X105.528 Y101.794 E3.06101
G1 X105.201 Y102.021 E3.08615
G1 X104.873 Y102.050 E3.10690
G1 X104.683 Y102.936 F7800.000
G1 X104.121 Y102.805 E3.14333 F1800.000
G1 X103.839 Y102.604 E3.16516
G1 X103.653 Y102.428 E3.18138
G1 X103.378 Y102.136 E3.20671
G1 X102.961 Y101.496 E3.25496
G1 X102.781 Y101.104 E3.28215
G1 X102.620 Y100.666 E3.31163
G1 X102.526 Y100.307 E3.33506
G1 X102.338 Y99.355 E3.39632
G1 X102.300 Y98.315 E3.46205
G1 X102.330 Y97.536 E3.51129
G1 X102.395 Y96.921 E3.55032
G1 X102.679 Y95.801 E3.62329
G1 X102.815 Y95.487 E3.64489
G1 X103.010 Y95.109 E3.67173
G1 X103.335 Y94.602 E3.70977
G1 X103.780 Y94.155 E3.74960
G1 X104.215 Y93.893 E3.78169
G1 X104.568 Y93.768 E3.80529
G1 X104.743 Y93.739 E3.81654
G1 X105.198 Y93.755 E3.84526
G1 X105.331 Y93.788 E3.85394 F1800.000
G1 X105.670 Y93.933 E3.87722
G1 X106.025 Y94.174 E3.90430
G1 X106.216 Y94.330 E3.91987
G1 X106.325 Y94.436 E3.92947
G1 X106.805 Y95.103 E3.98136
G1 X107.201 Y96.117 E4.05012
G1 X107.297 Y96.438 E4.07125
G1 X107.460 Y97.364 E4.13061
G1 X107.493 Y97.806 E4.15861
G1 X107.501 Y98.734 E4.21719
G1 X107.458 Y99.452 E4.26262
G1 X107.193 Y100.626 E4.33861
G1 X107.095 Y100.938 E4.35928
G1 X106.997 Y101.164 E4.37483
G1 X106.650 Y101.842 E4.42292
G1 X106.441 Y102.151 E4.44648
G1 X106.119 Y102.464 E4.47487
G1 X105.915 Y102.627 E4.49131
G1 X105.666 Y102.783 E4.50991
G1 X105.508 Y102.863 E4.52106
G1 X105.366 Y102.902 E4.53039
G1 X104.757 Y102.946 E4.56892
G1 X104.567 Y103.821 F7800.000
G1 X103.809 Y103.648 E4.61803 F1800.000
G1 X103.696 Y103.599 E4.62576
G1 X103.270 Y103.294 E4.65888
G1 X102.674 Y102.690 E4.71246
G1 X102.177 Y101.928 E4.76988
G1 X101.955 Y101.445 E4.80347
G1 X101.767 Y100.933 E4.83789
G1 X101.656 Y100.507 E4.86572
G1 X101.448 Y99.459 E4.93319
G1 X101.407 Y98.314 E5.00550
G1 X101.439 Y97.472 E5.05875
G1 X101.514 Y96.763 E5.10372
G1 X101.832 Y95.512 E5.18525
G1 X102.008 Y95.105 E5.21326
G1 X102.236 Y94.663 E5.24464
G1 X102.635 Y94.040 E5.29138
G1 X103.225 Y93.448 E5.34416
G1 X103.832 Y93.081 E5.38895
G1 X104.345 Y92.900 E5.42329
G1 X104.685 Y92.844 E5.44506
G1 X105.322 Y92.865 E5.48532
G1 X105.599 Y92.935 E5.50333 F1800.000
G1 X105.913 Y93.054 E5.52454
G1 X106.127 Y93.164 E5.53971
G1 X106.559 Y93.458 E5.57271
G1 X106.810 Y93.662 E5.59315
G1 X107.004 Y93.850 E5.61022
G1 X107.595 Y94.674 E5.67422
G1 X108.046 Y95.827 E5.75240
G1 X108.167 Y96.232 E5.77913
G1 X108.346 Y97.252 E5.84453
G1 X108.386 Y97.768 E5.87721
G1 X108.394 Y98.757 E5.93963
G1 X108.344 Y99.577 E5.99155
G1 X108.056 Y100.859 E6.07447
G1 X107.932 Y101.250 E6.10037
G1 X107.806 Y101.544 E6.12062
G1 X107.420 Y102.298 E6.17407
G1 X107.129 Y102.727 E6.20682
G1 X106.710 Y103.135 E6.24374
G1 X106.432 Y103.356 E6.26615
G1 X106.105 Y103.562 E6.29058
G1 X105.830 Y103.700 E6.31002
G1 X105.530 Y103.782 E6.32964
G1 X105.044 Y103.832 E6.36046
G1 X104.641 Y103.831 E6.38593
G1 X104.388 Y103.355 F7800.000
G1 X104.438 Y100.875 F7800.000
G1 X105.058 Y101.495 E6.45152 F1800.000
G1 X105.709 Y100.652 E6.53116
G1 X103.764 Y98.707 E6.73676
G1 X103.792 Y97.240 E6.84641
G1 X106.015 Y99.463 E7.08136
G1 X106.047 Y98.000 E7.19072
G1 X104.084 Y96.037 E7.39823
G1 X104.816 Y95.274 E7.47725
G1 X105.372 Y95.831 E7.53605
G1 E5.53605 F2400.00000
G92 E0
G1 X100.924 Y99.038 F7800.000
G1 X99.991 Y99.804 F7800.000
G1 X99.991 Y100.860 F7800.000
G1 X99.993 Y100.954 F7800.000
G1 X98.793 Y100.722 F7800.000
G1 X95.128 Y102.052 F7800.000
G1 E2.00000 F2400.00000
G1 X94.855 Y102.034 E2.01725 F1800.000
G1 X94.658 Y101.955 E2.03067
G1 X94.490 Y101.826 E2.04401
G1 X94.220 Y101.567 E2.06765
G1 X94.101 Y101.394 E2.08095
G1 X93.748 Y100.708 E2.12962
G1 X93.589 Y100.212 E2.16253
G1 X93.446 Y99.563 E2.20448
G1 X93.397 Y99.218 E2.22647
G1 X93.364 Y98.722 E2.25789
G1 X93.375 Y97.949 E2.30669
G1 X93.406 Y97.467 E2.33718
G1 X93.535 Y96.659 E2.38887
G1 X93.637 Y96.288 E2.41316
G1 X93.718 Y96.146 E2.42349
G1 X93.792 Y95.870 E2.44153
G1 X93.953 Y95.576 E2.46272
G1 X94.417 Y94.902 E2.51436
G1 X94.884 Y94.660 E2.54760
G1 X95.326 Y94.674 E2.57553
G1 X95.674 Y94.872 E2.60080
G1 X95.916 Y95.118 E2.62261
G1 X96.199 Y95.551 E2.65525
G1 X96.412 Y95.984 E2.68573
G1 X96.503 Y96.261 E2.70417
G1 X96.737 Y97.271 E2.76963
G1 X96.809 Y98.059 E2.81957
G1 X96.744 Y99.313 E2.89889
G1 X96.571 Y100.183 E2.95488
G1 X96.497 Y100.440 E2.97176
G1 X96.040 Y101.413 E3.03966
G1 X95.975 Y101.507 E3.04686
G1 X95.644 Y101.830 E3.07605
G1 X95.393 Y101.984 E3.09463
G1 X95.201 Y102.038 E3.10725
G1 X95.105 Y102.945 F7800.000
G1 X94.661 Y102.911 E3.13540 F1800.000
G1 X94.392 Y102.820 E3.15333
G1 X94.205 Y102.726 E3.16654
G1 X93.900 Y102.497 E3.19062
G1 X93.536 Y102.148 E3.22245
G1 X93.333 Y101.853 E3.24510
G1 X92.920 Y101.051 E3.30202
G1 X92.726 Y100.444 E3.34228
G1 X92.567 Y99.722 E3.38896
G1 X92.508 Y99.312 E3.41516
G1 X92.471 Y98.745 E3.45101
G1 X92.483 Y97.914 E3.50349
G1 X92.518 Y97.368 E3.53805
G1 X92.661 Y96.470 E3.59544
G1 X92.806 Y95.943 E3.62996
G1 X92.885 Y95.804 E3.64009
G1 X92.957 Y95.535 E3.65766
G1 X93.191 Y95.110 E3.68828
G1 X93.638 Y94.447 E3.73878
G1 X93.830 Y94.207 E3.75820
G1 X94.417 Y93.882 E3.80058
G1 X94.753 Y93.766 E3.82302
G1 X94.979 Y93.768 E3.83727
G1 X95.567 Y93.789 E3.87442 F1800.000
G1 X96.209 Y94.155 E3.92110
G1 X96.402 Y94.323 E3.93727
G1 X96.627 Y94.574 E3.95854
G1 X96.967 Y95.095 E3.99786
G1 X97.243 Y95.652 E4.03706
G1 X97.364 Y96.021 E4.06161
G1 X97.621 Y97.130 E4.13346
G1 X97.703 Y98.041 E4.19128
G1 X97.633 Y99.424 E4.27872
G1 X97.439 Y100.394 E4.34113
G1 X97.336 Y100.754 E4.36482
G1 X96.815 Y101.862 E4.44212
G1 X96.658 Y102.087 E4.45941
G1 X96.197 Y102.538 E4.50018
G1 X95.785 Y102.791 E4.53066
G1 X95.610 Y102.855 E4.54247
G1 X95.180 Y102.947 E4.57020
G1 X95.083 Y103.837 F7800.000
G1 X94.467 Y103.787 E4.60924 F1800.000
G1 X94.048 Y103.647 E4.63717
G1 X93.752 Y103.498 E4.65809
G1 X93.546 Y103.358 E4.67379
G1 X93.310 Y103.168 E4.69293
G1 X92.853 Y102.730 E4.73294
G1 X92.565 Y102.312 E4.76495
G1 X92.093 Y101.395 E4.83011
G1 X91.863 Y100.677 E4.87772
G1 X91.688 Y99.881 E4.92912
G1 X91.620 Y99.405 E4.95954
G1 X91.578 Y98.768 E4.99982
G1 X91.591 Y97.879 E5.05599
G1 X91.630 Y97.268 E5.09461
G1 X91.788 Y96.282 E5.15769
G1 X91.974 Y95.598 E5.20244
G1 X92.053 Y95.461 E5.21239
G1 X92.122 Y95.200 E5.22950
G1 X92.428 Y94.644 E5.26954
G1 X92.918 Y93.918 E5.32482
G1 X93.243 Y93.511 E5.35772
G1 X94.041 Y93.070 E5.41533
G1 X94.362 Y92.948 E5.43699
G1 X94.635 Y92.873 E5.45485
G1 X94.998 Y92.875 E5.47779
G1 X95.726 Y92.901 E5.52380 F1800.000
G1 X95.849 Y92.927 E5.53175
G1 X96.464 Y93.259 E5.57584
G1 X96.745 Y93.437 E5.59688
G1 X97.031 Y93.686 E5.62083
G1 X97.337 Y94.030 E5.64989
G1 X97.736 Y94.640 E5.69590
G1 X97.863 Y94.876 E5.71286
G1 X98.073 Y95.319 E5.74383
G1 X98.225 Y95.781 E5.77449
G1 X98.504 Y96.988 E5.85273
G1 X98.598 Y98.024 E5.91843
G1 X98.521 Y99.535 E6.01399
G1 X98.307 Y100.604 E6.08282
G1 X98.174 Y101.069 E6.11333
G1 X97.591 Y102.311 E6.20001
G1 X97.342 Y102.667 E6.22741
G1 X96.749 Y103.246 E6.27975
G1 X96.177 Y103.598 E6.32213
G1 X95.875 Y103.709 E6.34251
G1 X95.521 Y103.799 E6.36552
G1 X95.158 Y103.839 E6.38859
G1 X94.844 Y103.398 F7800.000
G1 X94.541 Y100.812 F7800.000
G1 X95.223 Y101.495 E6.46101 F1800.000
G1 X95.866 Y100.638 E6.54138
G1 X93.926 Y98.698 E6.74720
G1 X93.971 Y97.243 E6.85641
G1 X96.189 Y99.461 E7.09172
G1 X96.234 Y98.007 E7.20087
G1 X94.270 Y96.043 E7.40924
G1 X94.963 Y95.236 E7.48903
G1 X95.576 Y95.849 E7.55410
M104 S200 ; set temperature
G1 Z0.900 F7800.000
G1 E5.55410 F2400.00000
G92 E0
G1 X94.135 Y109.592 F7800.000
G1 E2.00000 F2400.00000
G1 X97.010 Y110.932 E2.08810 F900.000
G1 X97.240 Y111.002 E2.09479
G1 X97.742 Y111.025 E2.10873
G1 X102.777 Y111.020 E2.24861
G1 X104.233 Y110.346 E2.29317
G1 X104.629 Y110.238 E2.30458
G1 X104.768 Y110.104 E2.30993
G1 X105.810 Y109.613 E2.34195
G1 X105.944 Y109.851 E2.34954
G1 X105.637 Y110.055 E2.35979
G1 X104.432 Y110.703 E2.39778
G1 X103.404 Y111.127 E2.42867
G1 X102.439 Y111.423 E2.45670
G1 X102.051 Y111.517 E2.46779
G1 X100.870 Y111.734 E2.50117
G1 X100.080 Y111.775 E2.52314
G1 X99.104 Y111.732 E2.55026
G1 X97.616 Y111.444 E2.59237
G1 X96.573 Y111.126 E2.62267
G1 X95.605 Y110.728 E2.65172
G1 X94.313 Y110.038 E2.69241
G1 X94.001 Y109.829 E2.70284
G1 X94.098 Y109.657 E2.70833
G1 X91.687 Y108.177 F7800.000
G1 X91.820 Y108.014 E2.71328 F900.000
G1 X97.172 Y110.508 E2.85166
G1 X97.317 Y110.552 E2.85523
G1 X97.752 Y110.573 E2.86542
G1 X102.677 Y110.567 E2.98085
G1 X104.077 Y109.919 E3.01701
G1 X104.398 Y109.832 E3.02480
G1 X104.505 Y109.728 E3.02829
G1 X104.792 Y109.589 E3.03576
G1 X108.163 Y108.014 E3.12298
G1 X108.297 Y108.179 E3.12795
G1 X107.868 Y108.748 E3.14466
G1 X107.274 Y109.335 E3.16423
G1 X106.854 Y109.718 E3.17754
G1 X106.196 Y110.227 E3.19705
G1 X105.871 Y110.442 E3.20618
G1 X104.622 Y111.115 E3.23944
G1 X103.557 Y111.553 E3.26643
G1 X102.559 Y111.860 E3.29090
G1 X102.145 Y111.959 E3.30087
G1 X100.922 Y112.185 E3.33001
G1 X100.081 Y112.228 E3.34975
G1 X99.051 Y112.182 E3.37392
G1 X97.508 Y111.884 E3.41076
G1 X96.417 Y111.551 E3.43750
G1 X95.412 Y111.138 E3.46295
G1 X94.080 Y110.427 E3.49835
G1 X93.706 Y110.176 E3.50891
G1 X93.123 Y109.715 E3.52630
G1 X92.558 Y109.193 E3.54435
G1 X92.107 Y108.744 E3.55927
G1 X91.731 Y108.237 E3.57404
G1 X91.890 Y108.119 F7800.000
G1 X92.185 Y108.448 F7800.000
G1 X92.741 Y108.852 E3.59314 F1200.000
G1 X92.740 Y108.853 F7800.000
G1 X93.875 Y109.592 E3.67496 F1200.000
G1 X98.172 Y111.286 F7800.000
G1 X99.146 Y111.379 E3.70215 F1200.000
G1 X100.078 Y111.399 E3.72806
G1 X100.828 Y111.379 E3.74888
G1 X101.884 Y111.282 E3.77834
G1 X106.070 Y109.613 F7800.000
G1 X106.530 Y109.332 E3.81091 F1200.000
G1 X107.230 Y108.858 E3.86200
G1 X107.230 Y108.858 F7800.000
G1 X107.792 Y108.451 E3.88126 F1200.000
G1 E1.88126 F2400.00000
G92 E0
G1 X103.148 Y110.077 F7800.000
G1 X100.715 Y106.622 F7800.000
G1 X99.976 Y106.354 F7800.000
G1 X99.381 Y106.580 F7800.000
G1 X99.309 Y106.604 F7800.000
G1 X97.043 Y103.656 F7800.000
G1 X94.238 Y102.962 F7800.000
G1 E2.00000 F2400.00000
G1 X93.943 Y102.790 E2.00951 F900.000
G1 X93.549 Y102.447 E2.02402
G1 X93.240 Y102.067 E2.03764
G1 X92.919 Y101.528 E2.05505
G1 X92.751 Y101.138 E2.06686
G1 X92.555 Y100.569 E2.08357
G1 X92.453 Y100.164 E2.09518
G1 X92.333 Y99.514 E2.11352
G1 X92.260 Y98.281 E2.14784
G1 X92.319 Y97.288 E2.17546
G1 X92.481 Y96.410 E2.20026
G1 X92.619 Y95.921 E2.21438
G1 X92.900 Y95.216 E2.23547
G1 X93.027 Y94.966 E2.24325
G1 X93.381 Y94.447 E2.26070
G1 X93.749 Y94.058 E2.27557
G1 X93.977 Y93.881 E2.28359
G1 X94.281 Y93.713 E2.29322
G1 X94.695 Y93.582 E2.30531
G1 X95.299 Y93.554 E2.32209
G1 X95.618 Y93.620 E2.33115
G1 X95.848 Y93.707 E2.33798 F900.000
G1 X96.160 Y93.880 E2.34788
G1 X96.445 Y94.106 E2.35799
G1 X96.753 Y94.428 E2.37037
G1 X97.031 Y94.816 E2.38361
G1 X97.267 Y95.254 E2.39746
G1 X97.489 Y95.800 E2.41382
G1 X97.694 Y96.533 E2.43495
G1 X97.819 Y97.218 E2.45429
G1 X97.886 Y98.092 E2.47865
