; generated by Slic3r 0.9.10b on 2013-10-20 at 12:15:29

; layer_height = 0.25
; perimeters = 1
; top_solid_layers = 3
; bottom_solid_layers = 2
; fill_density = 0.7
; perimeter_speed = 30
; infill_speed = 60
; travel_speed = 130
; nozzle_diameter = 0.4
; filament_diameter = 3
; extrusion_multiplier = 1
; perimeters extrusion width = 0.53mm
; infill extrusion width = 0.53mm
; solid infill extrusion width = 0.53mm
; top infill extrusion width = 0.53mm
; support material extrusion width = 0.53mm
; first layer extrusion width = 0.80mm

G21 ; set units to millimeters
M107
M190 S65 ; wait for bed temperature to be reached
M104 S195 ; set temperature
G28 ; home all axes
G1 Z5 F5000 ; lift nozzle
M109 S195 ; wait for temperature to be reached
G90 ; use absolute coordinates
G92 E0
M82 ; use absolute distances for extrusion
G1 F1800.000 E-1.00000
G92 E0
G1 Z0.400 F7800.000
G1 X72.000 Y85.250
G1 F1800.000 E1.00000
G1 X73.020 Y84.420 F540.000 E1.05314
G1 X74.180 Y83.800 E1.10630
G1 X75.440 Y83.410 E1.15960
G1 X76.750 Y83.290 E1.21277
G1 X123.250 Y83.290 E3.09198
G1 X124.560 Y83.410 E3.14514
G1 X125.820 Y83.800 E3.19844
G1 X126.980 Y84.420 E3.25160
G1 X128.000 Y85.250 E3.30474
G1 X128.830 Y86.270 E3.35789
G1 X129.450 Y87.430 E3.41104
G1 X129.840 Y88.690 E3.46435
G1 X129.960 Y90.000 E3.51751
G1 X129.960 Y110.000 E4.32577
G1 X129.840 Y111.310 E4.37894
G1 X129.450 Y112.570 E4.43224
G1 X128.830 Y113.730 E4.48540
G1 X128.000 Y114.750 E4.53854
G1 X126.980 Y115.580 E4.59168
G1 X125.820 Y116.200 E4.64484
G1 X124.560 Y116.590 E4.69814
G1 X123.250 Y116.710 E4.75131
G1 X76.750 Y116.710 E6.63052
G1 X75.440 Y116.590 E6.68368
G1 X74.180 Y116.200 E6.73699
G1 X73.020 Y115.580 E6.79014
G1 X72.000 Y114.750 E6.84328
G1 X71.170 Y113.730 E6.89643
G1 X70.550 Y112.570 E6.94958
G1 X70.160 Y111.310 E7.00289
G1 X70.040 Y110.000 E7.05605
G1 X70.040 Y90.000 E7.86431
G1 X70.160 Y88.690 E7.91748
G1 X70.550 Y87.430 E7.97078
G1 X71.170 Y86.270 E8.02394
G1 X71.932 Y85.333 E8.07275
G1 F1800.000 E7.07275
G92 E0
G1 X108.102 Y90.357 F7800.000
G1 F1800.000 E1.00000
G1 X122.893 Y90.357 F378.000 E1.59776
G1 X122.893 Y109.643 E2.37716
G1 X108.102 Y109.643 E2.97493
G1 X108.102 Y105.357 E3.14813
G1 X114.107 Y105.357 E3.39083
G1 X114.107 Y94.643 E3.82382
G1 X108.102 Y94.643 E4.06652
G1 X108.102 Y90.464 E4.23540
G1 F1800.000 E3.23540
G92 E0
G1 X102.179 Y91.071 F7800.000
G1 F1800.000 E1.00000
G1 X102.179 Y96.971 F540.000 E1.23844
G1 X111.679 Y96.971 E1.62236
G1 X111.679 Y103.029 E1.86717
G1 X102.179 Y103.029 E2.25109
G1 X102.179 Y108.929 E2.48953
G1 X77.821 Y108.929 E3.47389
G1 X77.821 Y101.571 E3.77123
G1 X84.670 Y101.571 E4.04802
G1 X85.154 Y103.299 E4.12054
G1 X86.326 Y105.226 E4.21169
G1 X87.974 Y106.766 E4.30283
G1 X89.977 Y107.803 E4.39397
G1 X92.185 Y108.262 E4.48511
G1 X94.435 Y108.108 E4.57626
G1 X96.384 Y107.415 E4.65986
G1 X96.560 Y107.353 E4.66740
G1 X98.402 Y106.052 E4.75854
G1 X99.826 Y104.303 E4.84969
G1 X100.724 Y102.234 E4.94083
G1 X101.031 Y100.000 E5.03197
G1 X100.724 Y97.766 E5.12311
G1 X99.826 Y95.697 E5.21426
G1 X98.402 Y93.948 E5.30540
G1 X96.560 Y92.647 E5.39654
G1 X96.384 Y92.585 E5.40408
G1 X94.435 Y91.892 E5.48768
G1 X92.185 Y91.738 E5.57883
G1 X89.977 Y92.197 E5.66997
G1 X87.974 Y93.234 E5.76111
G1 X86.326 Y94.774 E5.85226
G1 X85.154 Y96.701 E5.94340
G1 X84.670 Y98.429 E6.01592
G1 X77.821 Y98.429 E6.29271
G1 X77.821 Y91.071 E6.59005
G1 X102.072 Y91.071 E7.57008
G1 X102.893 Y90.357 F7800.000
G1 X102.893 Y96.257 F378.000 E7.80852
G1 X112.393 Y96.257 E8.19245
G1 X112.393 Y103.743 E8.49497
G1 X102.893 Y103.743 E8.87890
G1 X102.893 Y109.643 E9.11734
G1 X77.107 Y109.643 E10.15942
G1 X77.107 Y100.857 E10.51449
G1 X85.260 Y100.857 E10.84397
G1 X85.260 Y101.029 E10.85094
G1 X85.815 Y103.012 E10.93415
G1 X86.885 Y104.771 E11.01736
G1 X88.390 Y106.177 E11.10056
G1 X90.218 Y107.124 E11.18377
G1 X92.234 Y107.543 E11.26698
G1 X94.288 Y107.402 E11.35019
G1 X96.145 Y106.742 E11.42983
G1 X96.228 Y106.713 E11.43340
G1 X97.910 Y105.525 E11.51661
G1 X99.210 Y103.928 E11.59982
G1 X100.030 Y102.040 E11.68303
G1 X100.310 Y100.000 E11.76624
G1 X100.030 Y97.960 E11.84945
G1 X99.210 Y96.072 E11.93265
G1 X97.910 Y94.475 E12.01586
G1 X96.228 Y93.287 E12.09907
G1 X96.145 Y93.258 E12.10264
G1 X94.288 Y92.598 E12.18228
G1 X92.234 Y92.457 E12.26549
G1 X90.218 Y92.876 E12.34870
G1 X88.390 Y93.823 E12.43191
G1 X86.885 Y95.229 E12.51512
G1 X85.815 Y96.988 E12.59833
G1 X85.260 Y98.971 E12.68153
G1 X85.260 Y99.143 E12.68850
G1 X77.107 Y99.143 E13.01799
G1 X77.107 Y90.357 E13.37305
G1 X102.786 Y90.357 E14.41081
G1 F1800.000 E13.41081
G92 E0
G1 X108.619 Y93.524 F7800.000
G1 F1800.000 E1.00000
G1 X109.220 Y94.125 F1080.000 E1.03440
G1 X110.232 Y94.125 E1.07532
G1 X108.619 Y92.513 E1.16758
G1 X108.619 Y91.502 E1.20850
G1 X111.243 Y94.125 E1.35864
G1 X112.254 Y94.125 E1.39956
G1 X109.004 Y90.875 E1.58557
G1 X110.015 Y90.875 E1.62649
G1 X113.265 Y94.125 E1.81250
G1 X114.277 Y94.125 F7800.000
G1 X111.026 Y90.875 F1080.000 E1.99851
G1 X112.037 Y90.875 E2.03943
G1 X122.375 Y101.213 E2.63101
G1 X122.375 Y100.201 E2.67193
G1 X113.049 Y90.875 E3.20565
G1 X114.060 Y90.875 E3.24657
G1 X122.375 Y99.190 E3.72242
G1 X122.375 Y98.179 E3.76334
G1 X115.071 Y90.875 E4.18132
G1 X116.082 Y90.875 E4.22224
G1 X122.375 Y97.168 E4.58235
G1 X122.375 Y96.157 E4.62327
G1 X117.093 Y90.875 E4.92552
G1 X118.105 Y90.875 E4.96644
G1 X122.375 Y95.145 E5.21082
G1 X122.375 Y94.134 E5.25174
G1 X119.116 Y90.875 E5.43825
G1 X120.127 Y90.875 E5.47917
G1 X122.375 Y93.123 E5.60782
G1 X122.375 Y92.112 E5.64873
G1 X121.138 Y90.875 E5.71951
G1 X122.150 Y90.875 E5.76043
G1 X122.375 Y91.100 E5.77334
G1 X114.625 Y94.473 F7800.000
G1 X122.375 Y102.224 F1080.000 E6.21686
G1 X122.375 Y103.235 E6.25778
G1 X114.625 Y95.485 E6.70130
G1 X114.625 Y96.496 E6.74222
G1 X122.375 Y104.246 E7.18574
G1 X122.375 Y105.258 E7.22666
G1 X114.625 Y97.507 E7.67018
G1 X114.625 Y98.518 E7.71110
G1 X122.375 Y106.269 E8.15462
G1 X122.375 Y107.280 E8.19554
G1 X114.625 Y99.530 E8.63906
G1 X114.625 Y100.541 E8.67998
G1 X122.375 Y108.291 E9.12350
G1 X122.198 Y109.125 E9.15799
G1 X114.625 Y101.552 E9.59137
G1 X114.625 Y102.563 E9.63228
G1 X121.187 Y109.125 E10.00779
G1 X120.175 Y109.125 E10.04871
G1 X114.625 Y103.575 E10.36634
G1 X114.625 Y104.586 E10.40726
G1 X119.164 Y109.125 E10.66703
G1 X118.153 Y109.125 E10.70795
G1 X114.625 Y105.597 E10.90985
G1 X113.891 Y105.875 E10.94159
G1 X117.142 Y109.125 E11.12760
G1 X116.130 Y109.125 E11.16852
G1 X112.880 Y105.875 E11.35453
G1 X111.869 Y105.875 E11.39545
G1 X115.119 Y109.125 E11.58146
G1 X114.108 Y109.125 E11.62238
G1 X110.857 Y105.875 E11.80839
G1 X109.846 Y105.875 E11.84931
G1 X113.097 Y109.125 E12.03532
G1 X112.086 Y109.125 E12.07624
G1 X108.835 Y105.875 E12.26225
G1 X108.619 Y106.670 E12.29560
G1 X111.074 Y109.125 E12.43609
G1 X110.063 Y109.125 E12.47701
G1 X108.619 Y107.681 E12.55963
G1 X108.619 Y108.693 E12.60054
G1 X109.052 Y109.125 E12.62530
G1 F1800.000 E11.62530
G92 E0
G1 X110.562 Y97.489 F7800.000
G1 F1800.000 E1.00000
G1 X111.161 Y98.088 F1080.000 E1.03427
G1 X111.161 Y99.100 E1.07514
G1 X109.550 Y97.489 E1.16720
G1 X108.539 Y97.489 E1.20807
G1 X111.161 Y100.111 E1.35792
G1 X111.161 Y101.122 E1.39879
G1 X107.528 Y97.489 E1.60645
G1 X106.517 Y97.489 E1.64731
G1 X111.161 Y102.133 E1.91276
G1 X110.528 Y102.511 E1.94257
G1 X105.505 Y97.489 E2.22961
G1 X104.494 Y97.489 E2.27047
G1 X109.516 Y102.511 E2.55751
G1 X108.505 Y102.511 E2.59837
G1 X103.483 Y97.489 E2.88541
G1 X102.472 Y97.489 F7800.000
G1 X107.494 Y102.511 F1080.000 E3.17244
G1 X106.483 Y102.511 E3.21331
G1 X100.944 Y96.973 E3.52985
G1 X101.661 Y96.678 E3.56118
G1 X99.678 Y94.695 E3.67454
G1 X101.661 Y94.656 F7800.000
G1 X98.594 Y91.589 F1080.000 E3.84983
G1 X97.583 Y91.589 E3.89070
G1 X101.661 Y95.667 E4.12378
G1 X101.661 Y93.645 F7800.000
G1 X99.605 Y91.589 F1080.000 E4.24128
G1 X100.617 Y91.589 E4.28214
G1 X101.661 Y92.633 E4.34184
G1 X101.661 Y91.622 E4.38271
G1 X101.628 Y91.589 E4.38461
G1 X98.043 Y93.061 F7800.000
G1 X96.572 Y91.589 F1080.000 E4.46873
G1 X101.330 Y98.369 F7800.000
G1 X105.471 Y102.511 F1080.000 E4.70544
G1 X104.460 Y102.511 E4.74631
G1 X101.491 Y99.542 E4.91601
G1 X101.479 Y100.542 E4.95641
G1 X103.449 Y102.511 E5.06898
G1 X102.438 Y102.511 E5.10985
G1 X101.357 Y101.431 E5.17160
G1 X101.235 Y102.320 E5.20786
G1 X101.661 Y102.746 E5.23222
G1 X101.661 Y103.757 E5.27309
G1 X100.940 Y103.036 E5.31429
G1 X100.634 Y103.741 E5.34535
G1 X101.661 Y104.768 E5.40405
G1 X101.661 Y105.780 E5.44492
G1 X100.328 Y104.446 E5.52112
G1 X99.901 Y105.031 E5.55037
G1 X101.661 Y106.791 E5.65097
G1 X101.661 Y107.802 E5.69183
G1 X99.447 Y105.588 E5.81836
G1 X98.994 Y106.146 E5.84741
G1 X101.259 Y108.411 E5.97688
G1 X100.248 Y108.411 E6.01775
G1 X98.473 Y106.636 E6.11919
G1 X97.880 Y107.055 E6.14851
G1 X99.236 Y108.411 E6.22604
G1 X98.225 Y108.411 E6.26690
G1 X97.287 Y107.473 E6.32051
G1 X96.694 Y107.892 E6.34984
G1 X97.214 Y108.411 E6.37953
G1 X95.521 Y108.412 F7800.000
G1 X95.417 Y108.308 F360.000 E6.38234
G1 X95.769 Y108.183 E6.38947
G1 X95.998 Y108.412 E6.39566
G1 X96.121 Y108.057 E6.40281
G1 X96.422 Y108.358 E6.41093
G1 X89.315 Y108.412 F7800.000
G1 X89.125 Y108.222 F360.000 E6.41605
G1 X89.539 Y108.158 E6.42404
G1 X89.792 Y108.412 E6.43089
G1 X90.245 Y108.387 E6.43954
G1 X90.269 Y108.412 E6.44022
G1 X89.124 Y108.411 F7800.000
G1 X88.155 Y107.442 F1080.000 E6.49558
G1 X88.113 Y108.411 E6.53477
G1 X81.791 Y102.089 E6.89610
G1 X80.779 Y102.089 E6.93697
G1 X87.102 Y108.411 E7.29830
G1 X86.090 Y108.411 E7.33917
G1 X79.768 Y102.089 E7.70050
G1 X78.757 Y102.089 E7.74137
G1 X85.079 Y108.411 E8.10270
G1 X84.068 Y108.411 E8.14357
G1 X78.339 Y102.682 E8.47100
G1 X78.339 Y103.693 E8.51187
G1 X83.057 Y108.411 E8.78150
G1 X82.045 Y108.411 E8.82237
G1 X78.339 Y104.705 E9.03421
G1 X78.339 Y105.716 E9.07508
G1 X81.034 Y108.411 E9.22912
G1 X80.023 Y108.411 E9.26999
G1 X78.339 Y106.727 E9.36624
G1 X78.339 Y107.738 E9.40711
G1 X79.012 Y108.411 E9.44556
G1 X85.380 Y104.667 F7800.000
G1 X82.802 Y102.089 F1080.000 E9.59293
G1 X83.813 Y102.089 E9.63380
G1 X84.458 Y102.734 E9.67068
G1 F1800.000 E8.67068
G92 E0
G1 X78.624 Y97.911 F7800.000
G1 F1800.000 E1.00000
G1 X78.339 Y97.626 F1080.000 E1.01630
G1 X78.339 Y96.615 E1.05717
G1 X79.635 Y97.911 E1.13127
G1 X80.647 Y97.911 E1.17213
G1 X78.339 Y95.603 E1.30402
G1 X78.339 Y94.592 E1.34489
G1 X81.658 Y97.911 E1.53458
G1 X82.669 Y97.911 E1.57545
G1 X78.339 Y93.581 E1.82293
G1 X78.339 Y92.570 E1.86379
G1 X83.680 Y97.911 E2.16907
G1 X84.368 Y97.588 E2.19979
G1 X78.369 Y91.589 E2.54264
G1 X79.381 Y91.589 E2.58351
G1 X84.589 Y96.798 E2.88121
G1 X84.910 Y96.107 E2.91199
G1 X80.392 Y91.589 E3.17020
G1 X81.403 Y91.589 E3.21107
G1 X85.292 Y95.478 E3.43334
G1 X85.674 Y94.849 E3.46308
G1 X82.414 Y91.589 E3.64941
G1 X83.426 Y91.589 E3.69028
G1 X86.107 Y94.270 E3.84352
G1 X86.630 Y93.782 E3.87244
G1 X84.437 Y91.589 E3.99778
G1 X85.448 Y91.589 E4.03864
G1 X87.153 Y93.294 E4.13607
G1 X87.676 Y92.806 E4.16498
G1 X86.459 Y91.589 E4.23454
G1 X87.470 Y91.589 E4.27541
G1 X88.342 Y92.461 E4.32523
G1 X89.008 Y92.116 E4.35555
G1 X88.482 Y91.589 E4.38566
G1 X89.482 Y91.871 F7800.000
G1 X89.200 Y91.588 F360.000 E4.39328
G1 X89.677 Y91.588 E4.40239
G1 X89.797 Y91.708 E4.40562
G1 X90.154 Y91.588 E4.41281
G1 X90.191 Y91.624 E4.41379
G1 X95.561 Y91.743 F7800.000
G1 X95.406 Y91.588 F360.000 E4.41798
G1 X95.883 Y91.588 E4.42709
G1 X96.302 Y92.007 E4.43838
G1 X96.420 Y91.648 E4.44559
G1 X96.360 Y91.588 E4.44720
M106 S236
M104 S185 ; set temperature
G1 F1800.000 E3.44720
G92 E0
G1 Z0.650 F7800.000
G1 X106.872 Y90.251
G1 F1800.000 E1.00000
G1 X122.999 Y90.251 F1260.000 E1.28670
G1 X122.999 Y109.749 E1.63332
G1 X106.872 Y109.749 E1.92002
G1 X106.872 Y105.251 E1.99997
G1 X114.001 Y105.251 E2.12672
G1 X114.001 Y94.749 E2.31343
G1 X106.872 Y94.749 E2.44018
G1 X106.872 Y90.327 E2.51879
G1 F1800.000 E1.51879
G92 E0
G1 X102.496 Y90.754 F7800.000
G1 F1800.000 E1.00000
G1 X102.496 Y96.654 F1800.000 E1.10489
G1 X111.996 Y96.654 E1.27378
G1 X111.996 Y103.346 E1.39275
G1 X102.496 Y103.346 E1.56164
G1 X102.496 Y109.246 E1.66653
G1 X77.504 Y109.246 E2.11083
G1 X77.504 Y101.254 E2.25291
G1 X84.911 Y101.254 E2.38458
G1 X85.448 Y103.172 E2.41999
G1 X86.575 Y105.024 E2.45853
G1 X88.159 Y106.504 E2.49708
G1 X90.084 Y107.501 E2.53562
G1 X92.207 Y107.943 E2.57416
G1 X94.370 Y107.795 E2.61271
G1 X96.218 Y107.138 E2.64758
G1 X96.413 Y107.069 E2.65125
G1 X98.184 Y105.818 E2.68979
G1 X99.552 Y104.136 E2.72834
G1 X100.416 Y102.148 E2.76688
G1 X100.711 Y100.000 E2.80542
G1 X100.416 Y97.852 E2.84397
G1 X99.552 Y95.864 E2.88251
G1 X98.184 Y94.182 E2.92105
G1 X96.413 Y92.931 E2.95960
G1 X96.218 Y92.862 E2.96327
G1 X94.370 Y92.205 E2.99814
G1 X92.207 Y92.057 E3.03668
G1 X90.084 Y92.499 E3.07523
G1 X88.159 Y93.496 E3.11377
G1 X86.575 Y94.976 E3.15231
G1 X85.448 Y96.828 E3.19086
G1 X84.911 Y98.746 E3.22626
G1 X77.504 Y98.746 E3.35794
G1 X77.504 Y90.754 E3.50002
G1 X102.421 Y90.754 E3.94298
G1 X102.999 Y90.251 F7800.000
G1 X102.999 Y96.151 F1260.000 E4.04787
G1 X112.499 Y96.151 E4.21676
G1 X112.499 Y103.849 E4.35360
G1 X102.999 Y103.849 E4.52249
G1 X102.999 Y109.749 E4.62738
G1 X77.001 Y109.749 E5.08955
G1 X77.001 Y100.751 E5.24951
G1 X85.366 Y100.751 E5.39821
G1 X85.366 Y101.015 E5.40289
G1 X85.913 Y102.970 E5.43898
G1 X86.968 Y104.704 E5.47507
G1 X88.452 Y106.089 E5.51115
G1 X90.132 Y106.960 E5.54480
G1 X90.254 Y107.023 E5.54724
G1 X92.241 Y107.436 E5.58333
G1 X94.266 Y107.298 E5.61941
G1 X96.050 Y106.664 E5.65306
G1 X96.179 Y106.618 E5.65550
G1 X97.838 Y105.447 E5.69159
G1 X99.119 Y103.873 E5.72767
G1 X99.927 Y102.011 E5.76376
G1 X100.204 Y100.000 E5.79985
G1 X99.927 Y97.989 E5.83594
G1 X99.119 Y96.127 E5.87202
G1 X97.838 Y94.553 E5.90811
G1 X96.179 Y93.382 E5.94420
G1 X96.050 Y93.336 E5.94664
G1 X94.266 Y92.702 E5.98028
G1 X92.241 Y92.564 E6.01637
G1 X90.254 Y92.977 E6.05246
G1 X90.132 Y93.040 E6.05490
G1 X88.452 Y93.911 E6.08854
G1 X86.968 Y95.296 E6.12463
G1 X85.913 Y97.030 E6.16072
G1 X85.366 Y98.985 E6.19680
G1 X85.366 Y99.249 E6.20149
G1 X77.001 Y99.249 E6.35019
G1 X77.001 Y90.251 E6.51014
G1 X102.923 Y90.251 E6.97098
G1 F1800.000 E5.97098
G92 E0
G1 X106.636 Y97.134 F7800.000
G1 F1800.000 E1.00000
M106 S255
G1 X108.232 Y97.134 F3600.000 E1.02836
G1 F1800.000 E0.02836
M106 S236
G92 E0
G1 X107.800 Y94.384 F7800.000
G1 F1800.000 E1.00000
M106 S255
G1 X107.800 Y90.616 F3600.000 E1.06700
G1 X107.350 Y90.616 E1.07500
G1 X107.350 Y94.384 E1.14200
G1 F1800.000 E0.14200
M106 S236
G92 E0
G1 X106.067 Y97.018 F7800.000
G1 F1800.000 E1.00000
G1 X100.717 Y102.368 F3600.000 E1.13451
G1 X100.873 Y101.501 F7800.000
G1 X105.355 Y97.018 F3600.000 E1.24720
G1 X104.642 Y97.018 F7800.000
G1 X100.986 Y100.675 F3600.000 E1.33912
G1 X101.063 Y99.885 F7800.000
G1 X103.930 Y97.018 F3600.000 E1.41120
G1 X103.217 Y97.018 F7800.000
G1 X100.977 Y99.259 F3600.000 E1.46753
G1 X100.891 Y98.632 F7800.000
G1 X102.505 Y97.018 F3600.000 E1.50811
G1 X102.132 Y96.679 F7800.000
G1 X100.805 Y98.006 F3600.000 E1.54147
G1 X100.641 Y97.457 F7800.000
G1 X102.132 Y95.967 F3600.000 E1.57894
G1 X102.132 Y95.254 F7800.000
G1 X100.426 Y96.960 F3600.000 E1.62183
G1 X100.210 Y96.463 F7800.000
G1 X102.132 Y94.542 F3600.000 E1.67015
G1 X102.132 Y93.829 F7800.000
G1 X99.994 Y95.967 F3600.000 E1.72390
G1 X99.736 Y95.512 F7800.000
G1 X102.132 Y93.117 F3600.000 E1.78413
G1 X102.132 Y92.404 F7800.000
G1 X99.416 Y95.120 F3600.000 E1.85239
G1 X99.097 Y94.727 F7800.000
G1 X102.132 Y91.692 F3600.000 E1.92869
G1 X101.993 Y91.118 F7800.000
G1 X98.777 Y94.334 F3600.000 E2.00954
G1 X98.458 Y93.941 F7800.000
G1 X101.280 Y91.118 F3600.000 E2.08051
G1 X100.568 Y91.118 F7800.000
G1 X98.047 Y93.639 F3600.000 E2.14389
G1 X97.629 Y93.344 F7800.000
G1 X99.855 Y91.118 F3600.000 E2.19985
G1 X99.143 Y91.118 F7800.000
G1 X97.212 Y93.050 F3600.000 E2.24841
G1 X96.794 Y92.755 F7800.000
G1 X98.430 Y91.118 F3600.000 E2.28955
G1 X97.718 Y91.118 F7800.000
G1 X96.323 Y92.513 F3600.000 E2.32462
G1 X95.798 Y92.326 F7800.000
G1 X97.006 Y91.118 F3600.000 E2.35499
G1 X96.293 Y91.118 F7800.000
G1 X95.272 Y92.139 F3600.000 E2.38066
