; generated by Slic3r 1.2.9 on 2016-02-24 at 20:25:54

; external perimeters extrusion width = 0.50mm
; perimeters extrusion width = 0.58mm
; infill extrusion width = 0.58mm
; solid infill extrusion width = 0.58mm
; top infill extrusion width = 0.58mm

M107
M104 S205 ; set temperature
G28 ; home all axes
G1 Z5 F5000 ; lift nozzle

M109 S205 ; wait for temperature to be reached
G21 ; set units to millimeters
G90 ; use absolute coordinates
M82 ; use absolute distances for extrusion
G92 E0
G1 Z0.500 F7800.000
G1 E-2.00000 F2400.00000
G92 E0
G1 X77.916 Y77.689 F7800.000
G1 E2.00000 F2400.00000
G1 X78.817 Y76.825 E2.07883 F1800.000
G1 X80.201 Y75.630 E2.19436
G1 X81.510 Y74.622 E2.29864
G1 X83.020 Y73.590 E2.41415
G1 X83.745 Y73.138 E2.46809
G1 X84.784 Y72.536 E2.54391
G1 X85.537 Y72.132 E2.59784
G1 X87.183 Y71.336 E2.71334
G1 X88.499 Y70.785 E2.80341
G1 X89.298 Y70.483 E2.85734
G1 X90.434 Y70.095 E2.93317
G1 X91.251 Y69.846 E2.98710
G1 X93.022 Y69.386 E3.10260
G1 X94.641 Y69.062 E3.20690
G1 X96.452 Y68.803 E3.32242
G1 X97.302 Y68.719 E3.37635
G1 X99.128 Y68.613 E3.49184
G1 X100.780 Y68.611 E3.59615
G1 X101.408 Y68.634 E3.63585 F1800.000
G1 X103.233 Y68.768 E3.75136
G1 X104.647 Y68.948 E3.84143
G1 X105.490 Y69.086 E3.89536
G1 X107.282 Y69.457 E4.01086
G1 X108.661 Y69.821 E4.10093
G1 X109.478 Y70.067 E4.15486
G1 X111.206 Y70.669 E4.27037
G1 X112.526 Y71.209 E4.36043
G1 X113.304 Y71.561 E4.41436
G1 X114.630 Y72.218 E4.50782
G1 X116.177 Y73.090 E4.61993
G1 X116.903 Y73.540 E4.67386
G1 X118.416 Y74.568 E4.78936
G1 X119.551 Y75.432 E4.87944
G1 X120.212 Y75.973 E4.93336
G1 X121.283 Y76.915 E5.02343
G1 X122.590 Y78.194 E5.13894
G1 X123.175 Y78.817 E5.19287
G1 X124.114 Y79.890 E5.28294
G1 X125.243 Y81.329 E5.39844
G1 X125.742 Y82.023 E5.45237
G1 X126.746 Y83.552 E5.56787
G1 X127.464 Y84.784 E5.65795
G1 X127.868 Y85.537 E5.71188
G1 X128.497 Y86.817 E5.80194
G1 X129.215 Y88.499 E5.91745
G1 X129.517 Y89.298 E5.97138
G1 X130.092 Y91.034 E6.08688
G1 X130.467 Y92.411 E6.17695
G1 X130.662 Y93.242 E6.23088
G1 X130.938 Y94.641 E6.32094
G1 X131.197 Y96.452 E6.43646
G1 X131.281 Y97.302 E6.49038
G1 X131.373 Y98.726 E6.58045
G1 X131.393 Y100.555 E6.69595
G1 X131.366 Y101.408 E6.74989
G1 X131.271 Y102.831 E6.83996
G1 X131.207 Y103.457 E6.87965
G1 X130.954 Y105.268 E6.99515
G1 X130.681 Y106.668 E7.08522
G1 X130.489 Y107.500 E7.13915
G1 X130.118 Y108.878 E7.22922
G1 X129.548 Y110.616 E7.34472
G1 X129.249 Y111.416 E7.39865
G1 X128.536 Y113.100 E7.51416
G1 X127.910 Y114.382 E7.60422
G1 X127.508 Y115.136 E7.65815
G1 X126.582 Y116.713 E7.77365
G1 X125.794 Y117.902 E7.86373
G1 X125.297 Y118.597 E7.91766
G1 X124.428 Y119.728 E8.00773
G1 X123.236 Y121.116 E8.12324
G1 X122.654 Y121.740 E8.17717
G1 X121.644 Y122.747 E8.26724
G1 X120.282 Y123.968 E8.38272
G1 X119.622 Y124.511 E8.43666
G1 X118.163 Y125.612 E8.55210
G1 X116.980 Y126.410 E8.64224
G1 X116.255 Y126.862 E8.69618
G1 X114.664 Y127.765 E8.81167
G1 X113.387 Y128.401 E8.90174
G1 X112.610 Y128.754 E8.95565
G1 X111.501 Y129.215 E9.03148
G1 X110.702 Y129.517 E9.08544
G1 X108.966 Y130.092 E9.20088
G1 X107.589 Y130.467 E9.29100
G1 X106.758 Y130.662 E9.34492
G1 X105.358 Y130.938 E9.43503
G1 X103.548 Y131.196 E9.55049
G1 X102.698 Y131.281 E9.60443
G1 X100.872 Y131.387 E9.71991
G1 X99.445 Y131.393 E9.81002
G1 X98.592 Y131.366 E9.86394
G1 X96.768 Y131.232 E9.97942
G1 X95.353 Y131.052 E10.06951
G1 X94.510 Y130.914 E10.12342
G1 X92.719 Y130.543 E10.23890
G1 X91.339 Y130.180 E10.32901
G1 X90.522 Y129.933 E10.38293
G1 X89.172 Y129.473 E10.47300
G1 X87.474 Y128.791 E10.58851
G1 X86.695 Y128.439 E10.64246
G1 X85.062 Y127.618 E10.75789
G1 X83.823 Y126.910 E10.84802
G1 X83.097 Y126.460 E10.90195
G1 X81.912 Y125.666 E10.99204
G1 X80.449 Y124.568 E11.10751
G1 X79.788 Y124.027 E11.16144
G1 X78.717 Y123.085 E11.25153
G1 X77.410 Y121.806 E11.36703
G1 X76.825 Y121.183 E11.42095
G1 X75.852 Y120.068 E11.51441
G1 X74.757 Y118.671 E11.62652
G1 X74.258 Y117.977 E11.68046
G1 X73.590 Y116.980 E11.75628
G1 X73.138 Y116.255 E11.81021
G1 X72.236 Y114.664 E11.92571
G1 X71.599 Y113.387 E12.01579
G1 X71.246 Y112.610 E12.06971
G1 X70.701 Y111.291 E12.15978
G1 X70.095 Y109.566 E12.27529
G1 X69.846 Y108.749 E12.32922
G1 X69.478 Y107.371 E12.41927
G1 X69.338 Y106.758 E12.45898
G1 X68.995 Y104.961 E12.57448
G1 X68.803 Y103.548 E12.66455
G1 X68.719 Y102.698 E12.71848
G1 X68.613 Y100.872 E12.83397
G1 X68.607 Y99.445 E12.92405
G1 X68.634 Y98.592 E12.97798
G1 X68.768 Y96.767 E13.09349
G1 X68.948 Y95.353 E13.18355
G1 X69.086 Y94.510 E13.23748
G1 X69.457 Y92.718 E13.35299
G1 X69.821 Y91.339 E13.44306
G1 X70.067 Y90.522 E13.49699
G1 X70.546 Y89.121 E13.59044
G1 X71.209 Y87.474 E13.70256
G1 X71.561 Y86.696 E13.75649
G1 X72.218 Y85.370 E13.84994
G1 X73.090 Y83.823 E13.96206
G1 X73.540 Y83.097 E14.01599
G1 X74.334 Y81.912 E14.10606
G1 X75.432 Y80.449 E14.22156
G1 X75.973 Y79.788 E14.27549
G1 X76.915 Y78.717 E14.36555
G1 X77.863 Y77.742 E14.45142
G1 E12.45142 F2400.00000
G92 E0
G1 X103.231 Y102.909 F7800.000
G1 E2.00000 F2400.00000
G1 X102.556 Y103.518 E2.05740 F1800.000
G1 X101.768 Y103.972 E2.11480
G1 X100.904 Y104.253 E2.17219
G1 X100.000 Y104.348 E2.22959
G1 X99.096 Y104.253 E2.28699
G1 X98.232 Y103.972 E2.34438
G1 X97.444 Y103.518 E2.40178
G1 X96.769 Y102.909 E2.45918
G1 X96.270 Y102.223 E2.51277
G1 X96.009 Y101.711 E2.54903
G1 X95.747 Y100.904 E2.60262
G1 X95.652 Y100.000 E2.66002
G1 X95.747 Y99.098 E2.71731
G1 X96.003 Y98.307 E2.76979
G1 X96.266 Y97.782 E2.80688
G1 X96.769 Y97.091 E2.86086
G1 X97.444 Y96.482 E2.91825
G1 X98.231 Y96.028 E2.97565
G1 X99.094 Y95.748 E3.03294
G1 X99.921 Y95.659 E3.08542 F1800.000
G1 X100.508 Y95.687 E3.12251
G1 X101.344 Y95.865 E3.17648
G1 X102.174 Y96.235 E3.23388
G1 X102.909 Y96.769 E3.29128
G1 X103.518 Y97.444 E3.34868
G1 X103.972 Y98.232 E3.40608
G1 X104.253 Y99.096 E3.46347
G1 X104.348 Y100.000 E3.52087
G1 X104.259 Y100.844 E3.57446
G1 X104.111 Y101.399 E3.61072
G1 X103.765 Y102.174 E3.66431
G1 X103.275 Y102.849 E3.71697
G1 X102.564 Y102.309 F7800.000
G1 X102.028 Y102.791 E3.76252 F1800.000
G1 X101.403 Y103.152 E3.80807
G1 X100.717 Y103.375 E3.85362
G1 X100.000 Y103.450 E3.89917
G1 X99.283 Y103.375 E3.94471
G1 X98.597 Y103.152 E3.99026
G1 X97.972 Y102.791 E4.03581
G1 X97.436 Y102.309 E4.08136
G1 X97.034 Y101.755 E4.12459
G1 X96.837 Y101.368 E4.15198
G1 X96.625 Y100.717 E4.19521
G1 X96.550 Y100.000 E4.24075
G1 X96.625 Y99.284 E4.28624
G1 X96.831 Y98.647 E4.32850
G1 X97.031 Y98.248 E4.35668
G1 X97.436 Y97.691 E4.40015
G1 X97.972 Y97.209 E4.44569
G1 X98.597 Y96.848 E4.49124
G1 X99.282 Y96.625 E4.53673
G1 X99.947 Y96.554 E4.57899 F1800.000
G1 X100.393 Y96.575 E4.60717
G1 X101.066 Y96.719 E4.65063
G1 X101.725 Y97.012 E4.69618
G1 X102.309 Y97.436 E4.74173
G1 X102.791 Y97.972 E4.78728
G1 X103.152 Y98.597 E4.83283
G1 X103.375 Y99.283 E4.87837
G1 X103.450 Y100.000 E4.92392
G1 X103.379 Y100.681 E4.96715
G1 X103.267 Y101.100 E4.99454
G1 X102.988 Y101.725 E5.03777
G1 X102.608 Y102.248 E5.07858
G1 X101.897 Y101.708 F7800.000
G1 X101.500 Y102.065 E5.11228 F1800.000
G1 X101.038 Y102.332 E5.14598
G1 X100.531 Y102.497 E5.17968
G1 X100.000 Y102.553 E5.21338
G1 X99.469 Y102.497 E5.24707
G1 X98.962 Y102.332 E5.28077
G1 X98.500 Y102.065 E5.31447
G1 X98.103 Y101.708 E5.34817
G1 X97.797 Y101.287 E5.38104
G1 X97.664 Y101.026 E5.39956
G1 X97.503 Y100.531 E5.43242
G1 X97.447 Y100.000 E5.46612
G1 X97.503 Y99.470 E5.49980
G1 X97.659 Y98.987 E5.53185
G1 X97.796 Y98.714 E5.55112
G1 X98.103 Y98.292 E5.58407
G1 X98.500 Y97.935 E5.61776
G1 X98.962 Y97.668 E5.65146
G1 X99.469 Y97.503 E5.68514
G1 X99.974 Y97.449 E5.71720 F1800.000
G1 X100.278 Y97.464 E5.73646
G1 X100.789 Y97.572 E5.76941
G1 X101.276 Y97.789 E5.80311
G1 X101.708 Y98.103 E5.83681
G1 X102.065 Y98.500 E5.87051
G1 X102.332 Y98.962 E5.90421
G1 X102.497 Y99.469 E5.93790
G1 X102.553 Y100.000 E5.97160
G1 X102.498 Y100.518 E6.00447
G1 X102.422 Y100.801 E6.02299
G1 X102.211 Y101.276 E6.05585
G1 X101.941 Y101.647 E6.08482
G1 X102.035 Y102.189 F7800.000
G1 X115.855 Y113.914 F7800.000
G1 X115.426 Y114.406 E6.12604 F1800.000
G1 X114.452 Y115.383 E6.21315
G1 X113.414 Y116.295 E6.30040
G1 X112.319 Y117.138 E6.38766
G1 X111.173 Y117.907 E6.47479
G1 X109.976 Y118.600 E6.56217
G1 X108.737 Y119.213 E6.64942
G1 X107.463 Y119.743 E6.73660
G1 X106.157 Y120.188 E6.82370
G1 X104.825 Y120.548 E6.91083
G1 X103.468 Y120.820 E6.99820
G1 X102.099 Y121.002 E7.08544
G1 X100.722 Y121.094 E7.17257
G1 X99.338 Y121.096 E7.25999
G1 X97.961 Y121.008 E7.34710
G1 X96.592 Y120.829 E7.43424
G1 X95.237 Y120.562 E7.52150
G1 X93.903 Y120.207 E7.60865
G1 X92.594 Y119.764 E7.69588
G1 X91.317 Y119.238 E7.78310
G1 X90.076 Y118.628 E7.87046
G1 X88.881 Y117.940 E7.95750
G1 X87.732 Y117.175 E8.04470
G1 X86.634 Y116.334 E8.13201
G1 X85.595 Y115.426 E8.21914
G1 X84.616 Y114.450 E8.30640
G1 X83.704 Y113.413 E8.39361
G1 X82.862 Y112.319 E8.48081
G1 X82.093 Y111.172 E8.56803
G1 X81.400 Y109.977 E8.65525
G1 X80.788 Y108.739 E8.74247
G1 X80.257 Y107.463 E8.82968
G1 X79.811 Y106.156 E8.91689
G1 X79.452 Y104.823 E9.00409
G1 X79.181 Y103.469 E9.09130
G1 X78.998 Y102.100 E9.17853
G1 X78.906 Y100.721 E9.26576
G1 X78.904 Y99.340 E9.35297
G1 X78.992 Y97.962 E9.44017
G1 X79.170 Y96.593 E9.52737
G1 X79.438 Y95.238 E9.61457
G1 X79.793 Y93.903 E9.70179
G1 X80.236 Y92.594 E9.78902
G1 X80.762 Y91.317 E9.87624
G1 X81.372 Y90.077 E9.96349
G1 X82.060 Y88.880 E10.05069
G1 X82.826 Y87.731 E10.13788
G1 X83.665 Y86.634 E10.22508
G1 X84.574 Y85.594 E10.31231
G1 X85.550 Y84.616 E10.39955
G1 X86.587 Y83.704 E10.48675
G1 X87.681 Y82.862 E10.57393
G1 X88.828 Y82.093 E10.66118
G1 X90.024 Y81.400 E10.74843
G1 X91.262 Y80.788 E10.83563
G1 X92.536 Y80.257 E10.92282
G1 X93.844 Y79.811 E11.01003
G1 X95.178 Y79.452 E11.09726
G1 X96.532 Y79.181 E11.18446
G1 X97.900 Y78.998 E11.27166
G1 X99.279 Y78.906 E11.35888
G1 X100.660 Y78.904 E11.44610
G1 X102.038 Y78.992 E11.53331
G1 X103.408 Y79.171 E11.62052 F1800.000
G1 X104.763 Y79.438 E11.70775
G1 X106.097 Y79.794 E11.79496
G1 X107.406 Y80.235 E11.88216
G1 X108.682 Y80.762 E11.96937
G1 X109.922 Y81.371 E12.05660
G1 X111.120 Y82.060 E12.14384
G1 X112.269 Y82.826 E12.23103
G1 X113.366 Y83.665 E12.31824
G1 X114.406 Y84.574 E12.40546
G1 X115.384 Y85.549 E12.49267
G1 X116.296 Y86.586 E12.57988
G1 X117.138 Y87.681 E12.66710
G1 X117.907 Y88.828 E12.75430
G1 X118.600 Y90.023 E12.84152
G1 X119.212 Y91.261 E12.92876
G1 X119.743 Y92.537 E13.01598
G1 X120.189 Y93.844 E13.10318
G1 X120.548 Y95.177 E13.19040
G1 X120.819 Y96.532 E13.27763
G1 X121.002 Y97.901 E13.36482
G1 X121.094 Y99.278 E13.45202
G1 X121.096 Y100.660 E13.53924
G1 X121.008 Y102.038 E13.62648
G1 X120.829 Y103.408 E13.71369
G1 X120.562 Y104.763 E13.80089
G1 X120.206 Y106.097 E13.88810
G1 X119.764 Y107.406 E13.97530
G1 X119.238 Y108.682 E14.06251
G1 X118.629 Y109.922 E14.14974
G1 X117.940 Y111.120 E14.23698
G1 X117.174 Y112.269 E14.32419
G1 X116.335 Y113.366 E14.41140
G1 X115.905 Y113.858 E14.45265
G1 X116.527 Y114.502 F7800.000
G1 X116.078 Y115.015 E14.49572 F1800.000
G1 X115.063 Y116.034 E14.58651
G1 X113.982 Y116.985 E14.67745
G1 X112.840 Y117.863 E14.76841
G1 X111.646 Y118.664 E14.85923
G1 X110.398 Y119.387 E14.95030
G1 X109.107 Y120.026 E15.04124
G1 X107.778 Y120.579 E15.13211
G1 X106.418 Y121.043 E15.22290
G1 X105.029 Y121.417 E15.31371
G1 X103.615 Y121.701 E15.40479
G1 X102.187 Y121.890 E15.49572
G1 X100.752 Y121.987 E15.58654
G1 X99.310 Y121.989 E15.67765
G1 X97.875 Y121.897 E15.76845
G1 X96.448 Y121.711 E15.85927
G1 X95.035 Y121.432 E15.95023
G1 X93.645 Y121.062 E16.04107
G1 X92.281 Y120.601 E16.13199
G1 X90.950 Y120.052 E16.22290
G1 X89.656 Y119.416 E16.31395
G1 X88.411 Y118.699 E16.40468
G1 X87.212 Y117.901 E16.49557
G1 X86.068 Y117.026 E16.58657
G1 X84.985 Y116.079 E16.67739
G1 X83.965 Y115.062 E16.76835
G1 X83.014 Y113.981 E16.85924
G1 X82.137 Y112.840 E16.95013
G1 X81.335 Y111.645 E17.04104
G1 X80.613 Y110.399 E17.13195
G1 X79.975 Y109.109 E17.22286
G1 X79.422 Y107.779 E17.31377
G1 X78.957 Y106.417 E17.40467
G1 X78.583 Y105.027 E17.49556
G1 X78.300 Y103.616 E17.58646
G1 X78.110 Y102.188 E17.67738
G1 X78.013 Y100.752 E17.76830
G1 X78.011 Y99.312 E17.85920
G1 X78.103 Y97.876 E17.95009
G1 X78.289 Y96.448 E18.04099
G1 X78.568 Y95.036 E18.13188
G1 X78.938 Y93.645 E18.22278
G1 X79.399 Y92.281 E18.31370
G1 X79.948 Y90.950 E18.40462
G1 X80.583 Y89.657 E18.49555
G1 X81.301 Y88.410 E18.58645
G1 X82.099 Y87.212 E18.67733
G1 X82.974 Y86.069 E18.76822
G1 X83.921 Y84.985 E18.85914
G1 X84.938 Y83.965 E18.95008
G1 X86.019 Y83.014 E19.04097
G1 X87.159 Y82.137 E19.13184
G1 X88.356 Y81.335 E19.22278
G1 X89.602 Y80.613 E19.31372
G1 X90.892 Y79.975 E19.40460
G1 X92.221 Y79.422 E19.49548
G1 X93.583 Y78.957 E19.58639
G1 X94.973 Y78.582 E19.67731
G1 X96.385 Y78.300 E19.76820
G1 X97.811 Y78.110 E19.85909
G1 X99.248 Y78.013 E19.95000
G1 X100.688 Y78.011 E20.04091
G1 X102.124 Y78.103 E20.13181
G1 X103.552 Y78.289 E20.22271 F1800.000
G1 X104.964 Y78.568 E20.31363
G1 X106.355 Y78.938 E20.40453
G1 X107.719 Y79.399 E20.49542
G1 X109.050 Y79.948 E20.58632
G1 X110.342 Y80.583 E20.67725
G1 X111.590 Y81.301 E20.76818
G1 X112.788 Y82.099 E20.85906
G1 X113.932 Y82.974 E20.94996
G1 X115.015 Y83.921 E21.04086
G1 X116.035 Y84.938 E21.13177
G1 X116.985 Y86.019 E21.22267
G1 X117.863 Y87.160 E21.31358
G1 X118.665 Y88.355 E21.40447
G1 X119.387 Y89.601 E21.49539
G1 X120.025 Y90.892 E21.58631
G1 X120.578 Y92.221 E21.67722
G1 X121.043 Y93.583 E21.76812
G1 X121.418 Y94.973 E21.85903
G1 X121.701 Y96.385 E21.94994
G1 X121.890 Y97.812 E22.04083
G1 X121.987 Y99.248 E22.13171
G1 X121.989 Y100.688 E22.22263
G1 X121.897 Y102.125 E22.31355
G1 X121.711 Y103.552 E22.40446
G1 X121.432 Y104.964 E22.49534
G1 X121.062 Y106.355 E22.58625
G1 X120.601 Y107.719 E22.67714
G1 X120.052 Y109.050 E22.76805
G1 X119.417 Y110.342 E22.85897
G1 X118.699 Y111.590 E22.94990
G1 X117.901 Y112.788 E23.04079
G1 X117.026 Y113.932 E23.13170
G1 X116.577 Y114.445 E23.17479
G1 X117.199 Y115.090 F7800.000
G1 X116.731 Y115.625 E23.21971 F1800.000
G1 X115.534 Y116.826 E23.32679
G1 X115.522 Y116.819 E23.32766
G1 X114.400 Y117.806 E23.42201
G1 X114.389 Y117.798 E23.42288
G1 X113.362 Y118.589 E23.50471
G1 X111.953 Y119.533 E23.61183
G1 X111.943 Y119.524 E23.61269
G1 X110.996 Y120.073 E23.68180
G1 X110.999 Y120.086 E23.68266
G1 X109.659 Y120.749 E23.77701
G1 X109.661 Y120.762 E23.77788
G1 X108.282 Y121.336 E23.87224
G1 X108.283 Y121.350 E23.87310
G1 X106.678 Y121.897 E23.98016
G1 X105.040 Y122.339 E24.08730
G1 X105.033 Y122.327 E24.08817
G1 X103.762 Y122.582 E24.17005
G1 X102.477 Y122.752 E24.25187
G1 X102.475 Y122.766 E24.25273
G1 X100.783 Y122.879 E24.35980
G1 X99.486 Y122.881 E24.44168
G1 X99.482 Y122.894 E24.44255
G1 X97.991 Y122.799 E24.53690
G1 X97.986 Y122.811 E24.53777
G1 X96.304 Y122.592 E24.64486
G1 X94.834 Y122.302 E24.73950
G1 X93.387 Y121.917 E24.83403
G1 X91.967 Y121.437 E24.92865
G1 X90.582 Y120.866 E25.02325
G1 X89.419 Y120.294 E25.10510
G1 X89.409 Y120.304 E25.10597
G1 X87.940 Y119.458 E25.21303
G1 X86.528 Y118.518 E25.32017
G1 X86.532 Y118.505 E25.32104
G1 X85.502 Y117.717 E25.40293
G1 X84.376 Y116.732 E25.49744
G1 X83.314 Y115.674 E25.59209
G1 X82.325 Y114.549 E25.68667
G1 X81.411 Y113.362 E25.78126
G1 X80.577 Y112.117 E25.87585
G1 X79.826 Y110.821 E25.97046
G1 X79.162 Y109.478 E26.06506
G1 X78.586 Y108.095 E26.15966
G1 X78.103 Y106.677 E26.25425
G1 X77.713 Y105.231 E26.34883
G1 X77.419 Y103.762 E26.44341
G1 X77.221 Y102.277 E26.53803
G1 X77.121 Y100.782 E26.63264
G1 X77.118 Y99.284 E26.72723
G1 X77.214 Y97.789 E26.82181
G1 X77.408 Y96.304 E26.91640
G1 X77.698 Y94.835 E27.01098
G1 X78.083 Y93.387 E27.10557
G1 X78.563 Y91.968 E27.20019
G1 X79.134 Y90.582 E27.29479
G1 X79.795 Y89.238 E27.38942
G1 X80.542 Y87.939 E27.48401
G1 X81.372 Y86.693 E27.57858
G1 X82.282 Y85.503 E27.67316
G1 X83.268 Y84.375 E27.76776
G1 X84.327 Y83.314 E27.86239
G1 X85.451 Y82.325 E27.95697
G1 X86.638 Y81.411 E28.05154
G1 X87.883 Y80.577 E28.14617
G1 X89.180 Y79.826 E28.24080
G1 X90.522 Y79.161 E28.33537
G1 X91.905 Y78.586 E28.42995
G1 X93.323 Y78.103 E28.52454
G1 X94.769 Y77.713 E28.61915
G1 X96.238 Y77.419 E28.71373
