; generated by Slic3r 1.0.0RC2 on 2014-06-03 at 23:19:28

; layer_height = 0.35
; perimeters = 3
; top_solid_layers = 3
; bottom_solid_layers = 3
; fill_density = 0.4
; perimeter_speed = 30
; infill_speed = 60
; travel_speed = 130
; nozzle_diameter = 0.4
; filament_diameter = 3
; extrusion_multiplier = 1
; perimeters extrusion width = 0.40mm
; infill extrusion width = 0.42mm
; solid infill extrusion width = 0.42mm
; top infill extrusion width = 0.42mm
; first layer extrusion width = 0.80mm

G21 ; set units to millimeters
M107
M190 S95 ; wait for bed temperature to be reached
M104 S210 ; set temperature
G28 ; home all axes
G1 Z5 F5000 ; lift nozzle
M109 S210 ; wait for temperature to be reached
G90 ; use absolute coordinates
G92 E0
M82 ; use absolute distances for extrusion
G1 F1800.000 E-1.00000
G92 E0
G1 Z0.400 F7800.000
G1 X61.550 Y58.344 F7800.000
G1 E1.00000 F1800.000
G1 X62.050 Y57.844 E1.02858 F540.000
G1 X62.600 Y57.404 E1.05704
G1 X71.060 Y51.264 E1.47949
G1 X71.640 Y50.874 E1.50774
G1 X72.270 Y50.564 E1.53611
G1 X81.810 Y46.314 E1.95818
G1 X82.470 Y46.054 E1.98685
G1 X83.150 Y45.874 E2.01528
G1 X93.380 Y43.704 E2.43790
G1 X94.070 Y43.594 E2.46614
G1 X94.770 Y43.564 E2.49445
G1 X105.220 Y43.564 E2.91677
G1 X105.920 Y43.594 E2.94509
G1 X106.610 Y43.704 E2.97332
G1 X116.840 Y45.874 E3.39595
G1 X117.520 Y46.054 E3.42438
G1 X118.180 Y46.314 E3.45304
G1 X127.720 Y50.564 E3.87511
G1 X128.350 Y50.874 E3.90349
G1 X128.930 Y51.264 E3.93174
G1 X137.390 Y57.404 E4.35419
G1 X137.940 Y57.844 E4.38265
G1 X138.440 Y58.344 E4.41123
G1 X145.440 Y66.114 E4.83387
G1 X145.880 Y66.654 E4.86202
G1 X146.270 Y67.254 E4.89094
G1 X151.490 Y76.304 E5.31316
G1 X151.800 Y76.924 E5.34118
G1 X152.060 Y77.584 E5.36984
G1 X155.290 Y87.534 E5.79261
G1 X155.470 Y88.204 E5.82065
G1 X155.580 Y88.894 E5.84888
G1 X156.680 Y99.284 E6.27112
G1 X156.710 Y99.994 E6.29984
G1 X156.680 Y100.704 E6.32856
G1 X155.580 Y111.104 E6.75120
G1 X155.470 Y111.794 E6.77944
G1 X155.290 Y112.464 E6.80748
G1 X152.060 Y122.404 E7.22986
G1 X151.800 Y123.064 E7.25853
G1 X151.490 Y123.684 E7.28654
G1 X146.270 Y132.734 E7.70876
G1 X145.880 Y133.334 E7.73768
G1 X145.440 Y133.874 E7.76583
G1 X138.440 Y141.644 E8.18848
G1 X137.940 Y142.144 E8.21705
G1 X137.390 Y142.584 E8.24552
G1 X128.930 Y148.724 E8.66797
G1 X128.350 Y149.114 E8.69621
G1 X127.720 Y149.424 E8.72459
G1 X118.180 Y153.674 E9.14666
G1 X117.530 Y153.924 E9.17480
G1 X116.850 Y154.114 E9.20334
G1 X106.620 Y156.294 E9.62605
G1 X105.920 Y156.404 E9.65468
G1 X105.220 Y156.434 E9.68300
G1 X94.770 Y156.434 E10.10531
G1 X94.070 Y156.404 E10.13363
G1 X93.370 Y156.294 E10.16227
G1 X83.140 Y154.114 E10.58498
G1 X82.460 Y153.924 E10.61351
G1 X81.810 Y153.674 E10.64165
G1 X72.270 Y149.424 E11.06372
G1 X71.640 Y149.114 E11.09210
G1 X71.060 Y148.724 E11.12034
G1 X62.600 Y142.584 E11.54279
G1 X62.050 Y142.144 E11.57126
G1 X61.550 Y141.644 E11.59984
G1 X54.550 Y133.874 E12.02248
G1 X54.110 Y133.334 E12.05063
G1 X53.720 Y132.734 E12.07955
G1 X48.500 Y123.684 E12.50177
G1 X48.190 Y123.064 E12.52978
G1 X47.930 Y122.404 E12.55845
G1 X44.700 Y112.464 E12.98083
G1 X44.520 Y111.794 E13.00887
G1 X44.410 Y111.094 E13.03751
G1 X43.320 Y100.694 E13.46011
G1 X43.290 Y99.994 E13.48842
G1 X43.320 Y99.294 E13.51674
G1 X44.410 Y88.904 E13.93893
G1 X44.520 Y88.214 E13.96717
G1 X44.700 Y87.534 E13.99560
G1 X47.930 Y77.584 E14.41837
G1 X48.190 Y76.924 E14.44703
G1 X48.500 Y76.304 E14.47505
G1 X53.720 Y67.254 E14.89727
G1 X54.110 Y66.654 E14.92619
G1 X54.550 Y66.114 E14.95434
G1 X61.478 Y58.423 E15.37265
G1 F1800.000 E14.37265
G92 E0
G1 X67.774 Y64.209 F7800.000
G1 E1.00000 F1800.000
G1 X75.919 Y58.291 E1.40690 F540.000
G1 X85.117 Y54.196 E1.81380
G1 X94.966 Y52.102 E2.22070
G1 X105.034 Y52.102 E2.62760
G1 X114.883 Y54.196 E3.03450
G1 X124.081 Y58.291 E3.44140
G1 X132.226 Y64.209 E3.84830
G1 X138.964 Y71.691 E4.25520
G1 X143.998 Y80.411 E4.66211
G1 X147.109 Y89.987 E5.06900
G1 X148.162 Y100.000 E5.47590
G1 X147.109 Y110.013 E5.88281
G1 X143.998 Y119.589 E6.28970
G1 X138.964 Y128.309 E6.69661
G1 X132.226 Y135.791 E7.10351
G1 X124.081 Y141.709 E7.51041
G1 X114.883 Y145.804 E7.91731
G1 X105.034 Y147.898 E8.32421
G1 X94.966 Y147.898 E8.73111
G1 X85.117 Y145.804 E9.13801
G1 X75.919 Y141.709 E9.54491
G1 X67.774 Y135.791 E9.95181
G1 X61.036 Y128.309 E10.35871
G1 X56.002 Y119.589 E10.76561
G1 X52.891 Y110.013 E11.17251
G1 X51.838 Y100.000 E11.57941
G1 X52.891 Y89.987 E11.98631
G1 X56.002 Y80.411 E12.39321
G1 X61.036 Y71.691 E12.80012
G1 X67.702 Y64.289 E13.20268
G1 X67.293 Y63.675 F7800.000
G1 X75.560 Y57.669 E13.61565 F540.000
G1 X84.895 Y53.513 E14.02862
G1 X94.891 Y51.388 E14.44159
G1 X105.109 Y51.388 E14.85455
G1 X115.105 Y53.513 E15.26752
G1 X124.440 Y57.669 E15.68049
G1 X132.707 Y63.675 E16.09346
G1 X139.544 Y71.269 E16.50642
G1 X144.654 Y80.119 E16.91939
G1 X147.812 Y89.837 E17.33236
G1 X148.880 Y100.000 E17.74533
G1 X147.812 Y110.163 E18.15829
G1 X144.654 Y119.881 E18.57126
G1 X139.544 Y128.731 E18.98423
G1 X132.707 Y136.325 E19.39720
G1 X124.440 Y142.331 E19.81016
G1 X115.105 Y146.487 E20.22313
G1 X105.109 Y148.612 E20.63610
G1 X94.891 Y148.612 E21.04906
G1 X84.895 Y146.487 E21.46203
G1 X75.560 Y142.331 E21.87500
G1 X67.293 Y136.325 E22.28797
G1 X60.456 Y128.731 E22.70093
G1 X55.346 Y119.881 E23.11390
G1 X52.188 Y110.163 E23.52687
G1 X51.120 Y100.000 E23.93984
G1 X52.188 Y89.837 E24.35280
G1 X55.346 Y80.119 E24.76577
G1 X60.456 Y71.269 E25.17874
G1 X67.221 Y63.755 E25.58738
G1 X66.813 Y63.142 F7800.000
G1 X75.201 Y57.047 E26.00641 F378.000
G1 X84.673 Y52.830 E26.42545
G1 X94.816 Y50.674 E26.84448
G1 X105.184 Y50.674 E27.26351
G1 X115.327 Y52.830 E27.68255
G1 X124.799 Y57.047 E28.10158
G1 X133.187 Y63.142 E28.52062
G1 X140.125 Y70.847 E28.93965
G1 X145.310 Y79.827 E29.35869
G1 X148.514 Y89.688 E29.77772
G1 X149.598 Y100.000 E30.19675
G1 X148.514 Y110.312 E30.61579
G1 X145.310 Y120.173 E31.03482
G1 X140.125 Y129.153 E31.45386
G1 X133.187 Y136.858 E31.87289
G1 X124.799 Y142.953 E32.29193
G1 X115.327 Y147.170 E32.71096
G1 X105.184 Y149.326 E33.13000
G1 X94.816 Y149.326 E33.54903
G1 X84.673 Y147.170 E33.96806
G1 X75.201 Y142.953 E34.38710
G1 X66.813 Y136.858 E34.80613
G1 X59.875 Y129.153 E35.22516
G1 X54.690 Y120.173 E35.64420
G1 X51.486 Y110.312 E36.06323
G1 X50.402 Y100.000 E36.48227
G1 X51.486 Y89.688 E36.90130
G1 X54.690 Y79.827 E37.32034
G1 X59.875 Y70.847 E37.73937
G1 X66.741 Y63.221 E38.15408
G1 X67.484 Y63.386 F7800.000
G1 X116.779 Y55.568 F7800.000
G1 X144.390 Y83.179 E39.73493 F1080.000
G1 X144.877 Y84.677 E39.79873
G1 X114.955 Y54.756 E41.51188
G1 X113.605 Y54.417 E41.56825
G1 X145.364 Y86.176 E43.38661
G1 X145.851 Y87.675 E43.45041
G1 X112.320 Y54.144 E45.37021
G1 X111.035 Y53.870 E45.42339
G1 X146.338 Y89.174 E47.44464
G1 X146.682 Y90.529 E47.50123
G1 X109.750 Y53.597 E49.61570
G1 X108.465 Y53.324 E49.66888
G1 X146.800 Y91.659 E51.86371
G1 X146.919 Y92.790 E51.90973
G1 X107.180 Y53.051 E54.18494
G1 X105.896 Y52.778 E54.23812
G1 X147.038 Y93.920 E56.59368
G1 X147.157 Y95.051 E56.63971
G1 X104.690 Y52.584 E59.07111
G1 X103.678 Y52.584 E59.11207
G1 X147.276 Y96.182 E61.60820
G1 X147.394 Y97.312 E61.65422
G1 X102.666 Y52.584 E64.21508
G1 X101.655 Y52.584 E64.25604
G1 X147.513 Y98.443 E66.88164
G1 X147.632 Y99.573 E66.92766
G1 X100.643 Y52.584 E69.61798
G1 X99.631 Y52.584 E69.65894
G1 X147.617 Y100.570 E72.40633
G1 X147.521 Y101.486 E72.44360
G1 X98.619 Y52.584 E75.24340
G1 X97.608 Y52.584 E75.28436
G1 X147.425 Y102.401 E78.13659
G1 X147.328 Y103.317 E78.17386
G1 X96.596 Y52.584 E81.07850
G1 X95.584 Y52.584 E81.11946
G1 X147.232 Y104.232 E84.07652
G1 X147.136 Y105.148 E84.11379
G1 X94.650 Y52.662 E87.11881
G1 X93.816 Y52.839 E87.15334
G1 X147.040 Y106.063 E90.20062
G1 X146.943 Y106.979 E90.23789
G1 X92.981 Y53.017 E93.32744
G1 X92.147 Y53.194 E93.36198
G1 X146.847 Y107.894 E96.49379
G1 X146.751 Y108.810 E96.53106
G1 X91.313 Y53.371 E99.70513
G1 X90.478 Y53.549 E99.73967
G1 X146.655 Y109.725 E102.95600
G1 X146.438 Y110.520 E102.98936
G1 X89.644 Y53.726 E106.24104
G1 X88.809 Y53.904 E106.27557
G1 X146.190 Y111.284 E109.56082
G1 X145.941 Y112.047 E109.59333
G1 X87.975 Y54.081 E112.91215
G1 X87.141 Y54.258 E112.94668
G1 X145.693 Y112.811 E116.29906
G1 X145.445 Y113.575 E116.33157
G1 X86.306 Y54.436 E119.71752
G1 X85.472 Y54.613 E119.75206
G1 X145.197 Y114.338 E123.17157
G1 X144.949 Y115.102 E123.20408
G1 X84.739 Y54.892 E126.65136
G1 X84.039 Y55.203 E126.68239
G1 X144.701 Y115.866 E130.15554
G1 X144.453 Y116.629 E130.18805
G1 X83.339 Y55.515 E133.68708
G1 X82.639 Y55.827 E133.71811
G1 X144.205 Y117.393 E137.24301
G1 X143.957 Y118.157 E137.27552
G1 X81.938 Y56.138 E140.82631
G1 X81.238 Y56.450 E140.85733
G1 X143.708 Y118.920 E144.43399
G1 X143.414 Y119.637 E144.46537
G1 X80.538 Y56.762 E148.06524
G1 X79.838 Y57.074 E148.09626
G1 X143.043 Y120.279 E151.71500
G1 X142.673 Y120.920 E151.74499
G1 X79.138 Y57.385 E155.38261
G1 X78.438 Y57.697 E155.41363
G1 X142.303 Y121.561 E159.07013
G1 X141.932 Y122.203 E159.10012
G1 X77.738 Y58.009 E162.77550
G1 X77.038 Y58.320 E162.80652
G1 X141.562 Y122.844 E166.50078
G1 X141.192 Y123.486 E166.53076
G1 X76.338 Y58.632 E170.24390
G1 X75.723 Y59.029 E170.27353
G1 X140.821 Y124.127 E174.00066
G1 X140.451 Y124.769 E174.03064
G1 X75.137 Y59.455 E177.77012
G1 X74.551 Y59.881 E177.79944
G1 X140.081 Y125.410 E181.55127
G1 X139.710 Y126.051 E181.58126
G1 X73.965 Y60.306 E185.34543
G1 X73.379 Y60.732 E185.37475
G1 X139.340 Y126.693 E189.15127
G1 X138.970 Y127.334 E189.18126
G1 X72.793 Y61.158 E192.97013
G1 X72.207 Y61.584 E192.99945
G1 X138.599 Y127.976 E196.80067
G1 X138.128 Y128.516 E196.82970
G1 X71.621 Y62.009 E200.63749
G1 X71.035 Y62.435 E200.66682
G1 X137.649 Y129.049 E204.48071
G1 X137.169 Y129.581 E204.50972
G1 X70.449 Y62.861 E208.32972
G1 X69.863 Y63.287 E208.35904
G1 X136.690 Y130.113 E212.18515
G1 X136.211 Y130.646 E212.21415
G1 X69.277 Y63.712 E216.04636
G1 X68.691 Y64.138 E216.07569
G1 X135.731 Y131.178 E219.91400
G1 X135.252 Y131.711 E219.94301
G1 X68.130 Y64.588 E223.78603
G1 X67.624 Y65.095 E223.81499
G1 X134.772 Y132.243 E227.65949
G1 X134.293 Y132.775 E227.68849
G1 X67.145 Y65.627 E231.53299
G1 X66.666 Y66.160 E231.56199
G1 X133.814 Y133.308 E235.40649
G1 X133.334 Y133.840 E235.43549
G1 X66.186 Y66.692 E239.27999
G1 X65.707 Y67.225 E239.30899
G1 X132.855 Y134.373 E243.15349
G1 X132.376 Y134.905 E243.18249
G1 X65.228 Y67.757 E247.02698
G1 X64.748 Y68.289 E247.05599
G1 X131.871 Y135.412 E250.89901
G1 X131.309 Y135.862 E250.92815
G1 X64.269 Y68.822 E254.76647
G1 X63.789 Y69.354 E254.79547
G1 X130.723 Y136.288 E258.62768
G1 X130.137 Y136.713 E258.65700
G1 X63.310 Y69.887 E262.48311
G1 X62.831 Y70.419 E262.51211
G1 X129.551 Y137.139 E266.33211
G1 X128.965 Y137.565 E266.36144
G1 X62.351 Y70.951 E270.17534
G1 X61.872 Y71.484 E270.20434
G1 X128.379 Y137.991 E274.01213
G1 X127.793 Y138.416 E274.04145
G1 X61.401 Y72.024 E277.84267
G1 X61.030 Y72.666 E277.87266
G1 X127.207 Y138.842 E281.66153
G1 X126.621 Y139.268 E281.69085
G1 X60.660 Y73.307 E285.46737
G1 X60.290 Y73.949 E285.49736
G1 X126.035 Y139.694 E289.26153
G1 X125.449 Y140.119 E289.29086
G1 X59.919 Y74.590 E293.04268
G1 X59.549 Y75.231 E293.07267
G1 X124.863 Y140.545 E296.81215
G1 X124.277 Y140.971 E296.84147
G1 X59.179 Y75.873 E300.56860
G1 X58.808 Y76.514 E300.59859
G1 X123.662 Y141.368 E304.31173
G1 X122.962 Y141.680 E304.34275
G1 X58.438 Y77.156 E308.03701
G1 X58.068 Y77.797 E308.06700
G1 X122.262 Y141.991 E311.74237
G1 X121.562 Y142.303 E311.77340
G1 X57.697 Y78.439 E315.42990
G1 X57.327 Y79.080 E315.45989
G1 X120.862 Y142.615 E319.09751
G1 X120.162 Y142.926 E319.12853
G1 X56.957 Y79.721 E322.74727
G1 X56.586 Y80.363 E322.77726
G1 X119.462 Y143.238 E326.37712
G1 X118.762 Y143.550 E326.40815
G1 X56.292 Y81.080 E329.98481
G1 X56.043 Y81.843 E330.01732
G1 X118.062 Y143.861 E333.56810
G1 X117.362 Y144.173 E333.59913
G1 X55.795 Y82.607 E337.12404
G1 X55.547 Y83.371 E337.15654
G1 X116.661 Y144.485 E340.65558
G1 X115.961 Y144.797 E340.68660
G1 X55.299 Y84.134 E344.15976
G1 X55.051 Y84.898 E344.19226
G1 X115.261 Y145.108 E347.63955
G1 X114.528 Y145.387 E347.67130
G1 X54.803 Y85.662 E351.09081
G1 X54.555 Y86.425 E351.12332
G1 X113.694 Y145.564 E354.50927
G1 X112.859 Y145.742 E354.54381
G1 X54.307 Y87.189 E357.89619
G1 X54.059 Y87.953 E357.92870
G1 X112.025 Y145.919 E361.24752
G1 X111.191 Y146.096 E361.28205
G1 X53.810 Y88.716 E364.56730
G1 X53.562 Y89.480 E364.59981
G1 X110.356 Y146.274 E367.85150
G1 X109.522 Y146.451 E367.88603
G1 X53.345 Y90.274 E371.10237
G1 X53.249 Y91.190 E371.13964
G1 X108.687 Y146.629 E374.31372
G1 X107.853 Y146.806 E374.34825
G1 X53.153 Y92.106 E377.48007
G1 X53.057 Y93.021 E377.51734
G1 X107.019 Y146.983 E380.60689
G1 X106.184 Y147.161 E380.64142
G1 X52.960 Y93.937 E383.68871
G1 X52.864 Y94.852 E383.72598
G1 X105.350 Y147.338 E386.73100
G1 X104.416 Y147.416 E386.76894
G1 X52.768 Y95.768 E389.72600
G1 X52.672 Y96.683 E389.76327
G1 X103.404 Y147.416 E392.66792
G1 X102.392 Y147.416 E392.70888
G1 X52.575 Y97.599 E395.56110
G1 X52.479 Y98.514 E395.59837
G1 X101.381 Y147.416 E398.39818
G1 X100.369 Y147.416 E398.43914
G1 X52.383 Y99.430 E401.18653
G1 X52.368 Y100.427 E401.22688
G1 X99.357 Y147.416 E403.91721
G1 X98.345 Y147.416 E403.95817
G1 X52.487 Y101.557 E406.58377
G1 X52.605 Y102.688 E406.62979
G1 X97.334 Y147.416 E409.19065
G1 X96.322 Y147.416 E409.23161
G1 X52.724 Y103.818 E411.72775
G1 X52.843 Y104.949 E411.77377
G1 X95.310 Y147.416 E414.20517
G1 X94.104 Y147.222 E414.25461
G1 X52.962 Y106.079 E416.61018
G1 X53.081 Y107.210 E416.65621
G1 X92.820 Y146.949 E418.93141
G1 X91.535 Y146.676 E418.98459
G1 X53.200 Y108.341 E421.17943
G1 X53.318 Y109.471 E421.22546
G1 X90.250 Y146.403 E423.33993
G1 X88.965 Y146.130 E423.39311
G1 X53.662 Y110.826 E425.41436
G1 X54.149 Y112.325 E425.47816
G1 X87.680 Y145.856 E427.39797
G1 X86.395 Y145.583 E427.45115
G1 X54.636 Y113.824 E429.26951
G1 X55.123 Y115.322 E429.33331
G1 X85.045 Y145.244 E431.04646
G1 X83.221 Y144.432 F7800.000
G1 X55.610 Y116.821 E432.62732 F1080.000
G1 X56.097 Y118.320 E432.69112
G1 X81.397 Y143.621 E434.13968
G1 X79.573 Y142.809 F7800.000
G1 X56.838 Y120.073 E435.44136 F1080.000
G1 X58.220 Y122.467 F7800.000
G1 X77.750 Y141.997 E436.55949 F1080.000
G1 X75.684 Y140.942 F7800.000
G1 X59.603 Y124.861 E437.48020 F1080.000
G1 X60.985 Y127.255 F7800.000
G1 X71.984 Y138.254 E438.10994 F1080.000
G1 X68.284 Y135.566 F7800.000
G1 X67.639 Y134.921 E438.14687 F1080.000
G1 X143.903 Y81.680 F7800.000
G1 X118.603 Y56.379 E439.59542 F1080.000
G1 X120.427 Y57.191 F7800.000
G1 X143.162 Y79.926 E440.89709 F1080.000
G1 X141.779 Y77.533 F7800.000
G1 X122.250 Y58.003 E442.01521 F1080.000
G1 X124.316 Y59.058 F7800.000
G1 X140.397 Y75.139 E442.93591 F1080.000
G1 X139.015 Y72.745 F7800.000
G1 X128.016 Y61.746 E443.56563 F1080.000
G1 X131.717 Y64.434 F7800.000
G1 X132.361 Y65.079 E443.60253 F1080.000
M140 S90 ; set bed temperature
G1 F1800.000 E442.60253
G92 E0
G1 Z0.750 F7800.000
G1 X132.784 Y63.590 F7800.000
G1 E1.00000 F1800.000
G1 X139.637 Y71.202 E1.20286 F1800
G1 X144.759 Y80.072 E1.40573
G1 X147.924 Y89.813 E1.60860
G1 X148.994 Y100.000 E1.81146
G1 X147.924 Y110.187 E2.01433
G1 X144.759 Y119.928 E2.21719
G1 X139.637 Y128.798 E2.42006
G1 X132.784 Y136.410 E2.62292
G1 X124.497 Y142.431 E2.82579
G1 X115.140 Y146.597 E3.02865
G1 X105.121 Y148.726 E3.23152
G1 X94.879 Y148.726 E3.43438
G1 X84.860 Y146.597 E3.63725
G1 X75.503 Y142.431 E3.84011
G1 X67.216 Y136.410 E4.04298
G1 X60.363 Y128.798 E4.24584
G1 X55.241 Y119.928 E4.44871
G1 X52.076 Y110.187 E4.65157
G1 X51.006 Y100.000 E4.85444
G1 X52.076 Y89.813 E5.05730
G1 X55.241 Y80.072 E5.26017
G1 X60.363 Y71.202 E5.46303
G1 X67.216 Y63.590 E5.66590
G1 X75.503 Y57.569 E5.86876
G1 X84.860 Y53.403 E6.07163
G1 X94.879 Y51.274 E6.27449
G1 X105.121 Y51.274 E6.47736
G1 X115.140 Y53.403 E6.68022
G1 X124.497 Y57.569 E6.88309
G1 X132.735 Y63.555 E7.08477
G1 X133.053 Y63.291 F7800.000
G1 X139.963 Y70.965 E7.28930 F1800
G1 X145.126 Y79.909 E7.49383
G1 X148.317 Y89.730 E7.69836
G1 X149.397 Y100.000 E7.90289
G1 X148.317 Y110.270 E8.10742
