; generated by Slic3r 1.2.9 on 2016-02-24 at 20:30:58

; external perimeters extrusion width = 0.50mm
; perimeters extrusion width = 0.58mm
; infill extrusion width = 0.58mm
; solid infill extrusion width = 0.58mm
; top infill extrusion width = 0.58mm

M107
M104 S205 ; set temperature
G28 ; home all axes
G1 Z5 F5000 ; lift nozzle

M109 S205 ; wait for temperature to be reached
G21 ; set units to millimeters
G90 ; use absolute coordinates
M82 ; use absolute distances for extrusion
G92 E0
G1 Z0.500 F7800.000
G1 E-2.00000 F2400.00000
G92 E0
G1 X76.503 Y72.038 F7800.000
G1 E2.00000 F2400.00000
G1 X77.917 Y70.661 E2.12458 F1800.000
G1 X78.855 Y69.980 E2.19777
G1 X80.953 Y68.946 E2.34551
G1 X82.906 Y68.664 E2.47009
G1 X117.094 Y68.664 E4.62891
G1 X119.400 Y69.061 E4.77665
G1 X121.145 Y69.980 E4.90123 F1800.000
G1 X122.083 Y70.662 E4.97442
G1 X123.715 Y72.338 E5.12216
G1 X124.587 Y74.108 E5.24673
G1 X135.152 Y106.623 E7.40555
G1 X135.486 Y108.938 E7.55329
G1 X135.152 Y110.882 E7.67788
G1 X134.793 Y111.985 E7.75106
G1 X133.703 Y114.055 E7.89880
G1 X132.290 Y115.431 E8.02338
G1 X104.631 Y135.526 E10.18220
G1 X102.532 Y136.560 E10.32994
G1 X100.579 Y136.843 E10.45452
G1 X99.421 Y136.843 E10.52770
G1 X97.115 Y136.445 E10.67544
G1 X95.369 Y135.526 E10.80003
G1 X67.710 Y115.431 E12.95885
G1 X66.078 Y113.754 E13.10659
G1 X65.206 Y111.985 E13.23117
G1 X64.848 Y110.881 E13.30442
G1 X64.514 Y108.566 E13.45217
G1 X64.848 Y106.623 E13.57667
G1 X75.413 Y74.108 E15.73549
G1 X76.468 Y72.104 E15.87850
G1 E13.87850 F2400.00000
G92 E0
G1 X125.921 Y108.492 F7800.000
G1 E2.00000 F2400.00000
G1 X100.000 Y127.325 E4.02316 F1800.000
G1 X74.079 Y108.492 E6.04631
G1 X83.980 Y78.021 E8.06947
G1 X116.020 Y78.021 E10.09263
G1 X125.897 Y108.421 E12.11105
G1 X126.171 Y108.925 F7800.000
G1 X127.075 Y110.082 F7800.000
G1 X100.417 Y129.450 E14.19178 F1800.000
G1 X99.583 Y129.450 E14.24444
G1 X72.187 Y109.546 E16.38275
G1 X71.929 Y108.752 E16.43541
G1 X82.394 Y76.547 E18.57371
G1 X83.068 Y76.057 E18.62638
G1 X116.932 Y76.057 E20.76468
G1 X117.606 Y76.547 E20.81734
G1 X128.071 Y108.752 E22.95564 F1800.000
G1 X127.813 Y109.546 E23.00831
G1 X127.136 Y110.037 E23.06114
G1 X126.618 Y109.878 F7800.000
G1 X127.005 Y108.752 F7800.000
G1 X126.951 Y108.919 E23.08464 F1800.000
G1 X126.760 Y109.096 E23.11946
G1 X100.315 Y128.310 E27.49579
G1 X100.088 Y128.437 E27.53061
G1 X99.912 Y128.437 E27.55411
G1 X99.685 Y128.310 E27.58892
G1 X73.240 Y109.096 E31.96526
G1 X73.049 Y108.919 E32.00008
G1 X72.995 Y108.753 E32.02357
G1 X73.045 Y108.497 E32.05840
G1 X83.146 Y77.409 E36.43473
G1 X83.256 Y77.173 E36.46954
G1 X83.398 Y77.070 E36.49304
G1 X83.656 Y77.039 E36.52787
G1 X116.344 Y77.039 E40.90419
G1 X116.602 Y77.070 E40.93902
G1 X116.744 Y77.173 E40.96251
G1 X116.854 Y77.409 E40.99733
G1 X126.955 Y108.497 E45.37366
G1 X126.991 Y108.679 E45.39844
M104 S200 ; set temperature
G1 Z0.900 F7800.000
G1 X126.837 Y108.790 F7800.000
G1 X100.000 Y128.288 E46.31989 F3600.000
G1 X73.163 Y108.790 E47.24133
G1 X83.414 Y77.242 E48.16278
G1 X116.586 Y77.242 E49.08422
G1 X126.814 Y108.719 E50.00359
G1 X126.260 Y108.603 F7800.000
G1 X100.000 Y127.681 E50.90522 F3600.000
G1 X73.740 Y108.603 E51.80685
G1 X83.771 Y77.732 E52.70848
G1 X116.229 Y77.732 E53.61012
G1 X126.236 Y108.531 E54.50966
G1 X125.728 Y108.430 F7800.000
G1 X100.000 Y127.122 E55.25498 F1800.000
G1 X74.272 Y108.430 E56.00029
G1 X84.099 Y78.185 E56.74560
G1 X115.901 Y78.185 E57.49092
G1 X125.705 Y108.358 E58.23447
G1 X125.978 Y108.863 F7800.000
G1 X126.622 Y109.660 F7800.000
G1 X100.456 Y128.671 E59.13287 F3600.000
G1 X99.544 Y128.671 E59.15821
G1 X72.940 Y109.342 E60.07165
G1 X72.659 Y108.474 E60.09699
G1 X82.820 Y77.200 E61.01042
G1 X83.558 Y76.664 E61.03576
G1 X116.442 Y76.664 E61.94920
G1 X116.572 Y76.759 E61.95367
G1 X117.180 Y77.200 E61.97454 F3600.000
G1 X127.341 Y108.474 E62.88797
G1 X127.059 Y109.342 E62.91331
G1 X126.682 Y109.616 E62.92626
G1 X126.910 Y110.057 F7800.000
G1 X100.616 Y129.161 E63.82909 F3600.000
G1 X99.384 Y129.161 E63.86330
G1 X72.523 Y109.645 E64.78559
G1 X72.142 Y108.474 E64.81979
G1 X82.403 Y76.897 E65.74208
G1 X83.399 Y76.173 E65.77629
G1 X116.601 Y76.173 E66.69858
G1 X116.861 Y76.362 E66.70748
G1 X117.597 Y76.897 E66.73278 F3600.000
G1 X127.858 Y108.474 E67.65507
G1 X127.477 Y109.645 E67.68928
G1 X126.971 Y110.013 E67.70666
G1 X127.176 Y110.423 F7800.000
G1 X100.763 Y129.614 E68.47184 F1800.000
G1 X99.237 Y129.614 E68.50759
G1 X72.138 Y109.925 E69.29264
G1 X71.667 Y108.474 E69.32839
G1 X82.018 Y76.617 E70.11343
G1 X83.252 Y75.721 E70.14918
G1 X116.748 Y75.721 E70.93423
G1 X117.127 Y75.995 E70.94519
G1 X117.982 Y76.617 E70.96998 F1800.000
G1 X128.333 Y108.474 E71.75503
G1 X127.862 Y109.925 E71.79078
G1 X127.237 Y110.379 E71.80889
G1 X126.719 Y110.220 F7800.000
G1 X126.873 Y109.120 F7800.000
G1 X100.303 Y128.425 E72.72120 F1200.000
G1 X99.734 Y128.413 F7800.000
G1 X99.638 Y128.382 E72.72402 F1200.000
G1 X73.126 Y109.120 E73.63429
G1 X72.962 Y108.576 F7800.000
G1 X72.962 Y108.474 E73.63711 F1200.000
G1 X83.066 Y77.379 E74.54532
G1 X83.125 Y77.297 E74.54814
G1 X83.556 Y76.984 F7800.000
G1 X83.652 Y76.953 E74.55096 F1200.000
G1 X116.348 Y76.953 E75.45918
G1 X116.444 Y76.984 E75.46200
G1 X116.875 Y77.297 F7800.000
G1 X116.934 Y77.379 E75.46482 F1200.000
G1 X127.038 Y108.474 E76.37304
G1 X127.038 Y108.576 E76.37586
G1 Z1.300 F7800.000
G1 X126.327 Y109.255 F7800.000
G1 X100.504 Y128.017 E77.26252 F3600.000
G1 X99.496 Y128.017 E77.29050
G1 X73.577 Y109.185 E78.18044
G1 X73.266 Y108.227 E78.20842
G1 X83.166 Y77.757 E79.09836
G1 X83.981 Y77.165 E79.12634 F3600.000
G1 X116.019 Y77.165 E80.01629
G1 X116.834 Y77.757 E80.04427
G1 X126.734 Y108.227 E80.93421
G1 X126.423 Y109.185 E80.96219
G1 X126.388 Y109.211 E80.96340
G1 X126.005 Y108.882 F7800.000
G1 X100.344 Y127.526 E81.84448 F3600.000
G1 X99.656 Y127.526 E81.86360
G1 X73.995 Y108.882 E82.74468
G1 X73.782 Y108.227 E82.76380
G1 X83.584 Y78.061 E83.64488
G1 X84.141 Y77.656 E83.66400 F3600.000
G1 X115.859 Y77.656 E84.54509
G1 X116.416 Y78.061 E84.56421
G1 X126.218 Y108.227 E85.44529
G1 X126.028 Y108.810 E85.46233
G1 X125.620 Y108.602 F7800.000
G1 X100.197 Y127.073 E86.19882 F1800.000
G1 X99.803 Y127.073 E86.20806
G1 X74.380 Y108.602 E86.94455
G1 X74.258 Y108.227 E86.95379
G1 X83.969 Y78.340 E87.69029
G1 X84.288 Y78.109 E87.69953
G1 X115.712 Y78.109 E88.43602
G1 X116.031 Y78.340 E88.44526
G1 X125.742 Y108.227 E89.18175
G1 X125.644 Y108.531 E89.18924
G1 X125.775 Y109.078 F7800.000
G1 X126.514 Y109.833 F7800.000
G1 X100.691 Y128.594 E90.07588 F3600.000
G1 X99.309 Y128.594 E90.11428
G1 X73.086 Y109.542 E91.01465
G1 X72.659 Y108.227 E91.05306
G1 X82.675 Y77.400 E91.95342
G1 X83.793 Y76.588 E91.99183
G1 X116.207 Y76.588 E92.89220
G1 X116.591 Y76.867 E92.90539
G1 X117.325 Y77.400 E92.93061 F3600.000
G1 X127.341 Y108.227 E93.83097
G1 X126.914 Y109.542 E93.86938
G1 X126.575 Y109.788 E93.88102
G1 X126.803 Y110.230 F7800.000
G1 X100.851 Y129.085 E94.77210 F3600.000
G1 X99.149 Y129.085 E94.81936
G1 X72.668 Y109.845 E95.72859
G1 X72.142 Y108.227 E95.77586
G1 X82.257 Y77.097 E96.68509
G1 X83.634 Y76.097 E96.73236
G1 X116.366 Y76.097 E97.64158
G1 X116.879 Y76.470 E97.65920
G1 X117.743 Y77.097 E97.68885 F3600.000
G1 X127.858 Y108.227 E98.59808
G1 X127.332 Y109.845 E98.64535
G1 X126.864 Y110.186 E98.66142
G1 X127.069 Y110.596 F7800.000
G1 X100.998 Y129.538 E99.41668 F1800.000
G1 X99.002 Y129.538 E99.46345
G1 X72.283 Y110.125 E100.23748
G1 X71.667 Y108.227 E100.28425
G1 X81.872 Y76.817 E101.05827
G1 X83.487 Y75.644 E101.10505
G1 X116.513 Y75.644 E101.87907
G1 X117.145 Y76.103 E101.89738
G1 X118.128 Y76.817 E101.92584 F1800.000
G1 X128.333 Y108.227 E102.69987
G1 X127.717 Y110.125 E102.74664
G1 X127.130 Y110.552 E102.76365
G1 X126.612 Y110.392 F7800.000
G1 X126.345 Y109.599 F7800.000
G1 X100.609 Y128.297 E103.64729 F1200.000
G1 X99.417 Y128.305 E103.68041
G1 X73.343 Y109.372 E104.57549
G1 X72.967 Y108.214 E104.60932
G1 X82.932 Y77.570 E105.50440 F1200.000
G1 X83.901 Y76.876 E105.53752
G1 X116.099 Y76.876 E106.43189
G1 X117.084 Y77.592 E106.46572
G1 X127.033 Y108.214 E107.36009
G1 X126.668 Y109.363 E107.39359
G1 X126.405 Y109.555 E107.40262
M106 S175.95
G1 Z1.700 F7800.000
G1 X126.220 Y109.427 F7800.000
G1 X100.739 Y127.940 E108.27751 F3600.000
G1 X99.261 Y127.940 E108.31856
G1 X73.722 Y109.385 E109.19544
G1 X73.266 Y107.980 E109.23648
G1 X83.021 Y77.957 E110.11336
G1 X84.216 Y77.089 E110.15440
G1 X100.654 Y77.089 E110.61102
G1 X115.784 Y77.089 E111.03129 F3600.000
G1 X116.979 Y77.957 E111.07233
G1 X126.734 Y107.980 E111.94921
G1 X126.279 Y109.382 E111.99015
G1 X125.860 Y109.082 F7800.000
G1 X100.579 Y127.449 E112.85817 F3600.000
G1 X99.421 Y127.449 E112.89035
G1 X74.140 Y109.082 E113.75837
G1 X73.782 Y107.980 E113.79056
G1 X83.438 Y78.261 E114.65858
G1 X84.376 Y77.580 E114.69076
G1 X100.654 Y77.580 E115.14294
G1 X115.624 Y77.580 E115.55878 F3600.000
G1 X116.562 Y78.261 E115.59096
G1 X126.218 Y107.980 E116.45898
G1 X125.883 Y109.010 E116.48908
G1 X125.475 Y108.802 F7800.000
G1 X100.432 Y126.997 E117.21455 F1800.000
G1 X99.568 Y126.997 E117.23481
G1 X74.525 Y108.802 E117.96029
G1 X74.258 Y107.980 E117.98055
G1 X83.823 Y78.540 E118.70602
G1 X84.523 Y78.032 E118.72628
G1 X100.654 Y78.032 E119.10435
G1 X115.477 Y78.032 E119.45175 F1800.000
G1 X116.177 Y78.540 E119.47201
G1 X125.742 Y107.980 E120.19749
G1 X125.498 Y108.731 E120.21599
G1 X125.630 Y109.278 F7800.000
G1 X126.369 Y110.033 F7800.000
G1 X100.926 Y128.518 E121.08957 F3600.000
G1 X99.074 Y128.518 E121.14104
G1 X73.231 Y109.742 E122.02834
G1 X72.659 Y107.980 E122.07981
G1 X82.529 Y77.600 E122.96712
G1 X84.028 Y76.511 E123.01859
G1 X115.972 Y76.511 E123.90589
G1 X116.609 Y76.975 E123.92779
G1 X117.470 Y77.600 E123.95736 F3600.000
G1 X127.341 Y107.980 E124.84467
G1 X126.769 Y109.742 E124.89614
G1 X126.430 Y109.988 E124.90778
G1 X126.658 Y110.430 F7800.000
G1 X101.086 Y129.009 E125.78579 F3600.000
G1 X98.914 Y129.009 E125.84612
G1 X72.814 Y110.045 E126.74229
G1 X72.142 Y107.980 E126.80261
G1 X82.112 Y77.297 E127.69878
G1 X83.869 Y76.020 E127.75911
G1 X116.131 Y76.020 E128.65528
G1 X116.898 Y76.577 E128.68161
G1 X117.888 Y77.297 E128.71561 F3600.000
G1 X127.858 Y107.980 E129.61177
G1 X127.186 Y110.045 E129.67210
G1 X126.718 Y110.386 E129.68818
G1 X126.924 Y110.796 F7800.000
G1 X101.233 Y129.461 E130.43242 F1800.000
G1 X98.767 Y129.461 E130.49021
G1 X72.429 Y110.325 E131.25321
G1 X71.667 Y107.980 E131.31100
G1 X81.727 Y77.017 E132.07401
G1 X83.722 Y75.568 E132.13180
G1 X116.278 Y75.568 E132.89481
G1 X117.164 Y76.211 E132.92047
G1 X118.273 Y77.017 E132.95260 F1800.000
G1 X128.333 Y107.980 E133.71560
G1 X127.571 Y110.325 E133.77340
G1 X126.984 Y110.752 E133.79040
G1 X126.467 Y110.592 F7800.000
G1 X126.199 Y109.799 F7800.000
G1 X100.844 Y128.221 E134.66098 F1200.000
G1 X99.181 Y128.229 E134.70716
G1 X73.488 Y109.572 E135.58918
G1 X72.967 Y107.967 E135.63607
G1 X82.787 Y77.770 E136.51809 F1200.000
G1 X84.136 Y76.800 E136.56427
G1 X115.864 Y76.800 E137.44558
G1 X117.229 Y77.792 E137.49247
G1 X127.033 Y107.967 E138.37378
G1 X126.522 Y109.563 E138.42034
G1 X126.260 Y109.755 E138.42937
G1 Z2.100 F7800.000
G1 X126.074 Y109.627 F7800.000
G1 X100.974 Y127.864 E139.29120 F3600.000
G1 X99.026 Y127.864 E139.34531
G1 X73.868 Y109.585 E140.20913
G1 X73.266 Y107.733 E140.26323
G1 X82.875 Y78.157 E141.12705
G1 X84.451 Y77.012 E141.18116 F3600.000
G1 X115.549 Y77.012 E142.04498
G1 X117.125 Y78.157 E142.09908
G1 X126.734 Y107.733 E142.96290
G1 X126.133 Y109.582 E143.01691
G1 X125.715 Y109.282 F7800.000
G1 X100.814 Y127.373 E143.87186 F3600.000
G1 X99.186 Y127.373 E143.91711
G1 X74.285 Y109.282 E144.77207
G1 X73.782 Y107.733 E144.81731
G1 X83.293 Y78.461 E145.67227
G1 X84.611 Y77.503 E145.71751 F3600.000
G1 X115.389 Y77.503 E146.57247
G1 X116.707 Y78.461 E146.61772
G1 X126.218 Y107.733 E147.47267
G1 X125.738 Y109.210 E147.51583
G1 X125.330 Y109.002 F7800.000
G1 X100.667 Y126.920 E148.23029 F1800.000
G1 X99.333 Y126.920 E148.26157
G1 X74.670 Y109.002 E148.97602
G1 X74.258 Y107.733 E149.00730
G1 X83.678 Y78.740 E149.72175
G1 X84.758 Y77.956 E149.75303 F1800.000
G1 X115.242 Y77.956 E150.46749
G1 X116.322 Y78.740 E150.49877
G1 X125.742 Y107.733 E151.21322
G1 X125.353 Y108.931 E151.24274
G1 X125.484 Y109.478 F7800.000
G1 X126.224 Y110.233 F7800.000
G1 X101.162 Y128.441 E152.10326 F3600.000
G1 X98.838 Y128.441 E152.16779
G1 X73.376 Y109.942 E153.04204
G1 X72.659 Y107.733 E153.10657
G1 X82.384 Y77.800 E153.98081
G1 X84.264 Y76.435 E154.04534
G1 X115.736 Y76.435 E154.91959
G1 X117.616 Y77.800 E154.98411
G1 X127.341 Y107.733 E155.85836 F3600.000
G1 X126.624 Y109.942 E155.92289
G1 X126.284 Y110.188 E155.93453
G1 X126.512 Y110.630 F7800.000
G1 X101.321 Y128.932 E156.79948 F3600.000
G1 X98.679 Y128.932 E156.87287
G1 X72.959 Y110.245 E157.75598
G1 X72.142 Y107.733 E157.82937
G1 X81.967 Y77.497 E158.71247
G1 X84.104 Y75.944 E158.78586
G1 X115.896 Y75.944 E159.66897
G1 X118.033 Y77.497 E159.74236
G1 X127.858 Y107.733 E160.62547 F3600.000
G1 X127.041 Y110.245 E160.69886
G1 X126.573 Y110.586 E160.71493
G1 X126.778 Y110.996 F7800.000
G1 X101.468 Y129.385 E161.44815 F1800.000
G1 X98.532 Y129.385 E161.51696
G1 X72.574 Y110.525 E162.26895
G1 X71.667 Y107.733 E162.33776
G1 X81.582 Y77.217 E163.08974
G1 X83.957 Y75.491 E163.15856
G1 X116.043 Y75.491 E163.91054
G1 X118.418 Y77.217 E163.97935
G1 X128.333 Y107.733 E164.73134 F1800.000
G1 X127.426 Y110.525 E164.80015
G1 X126.839 Y110.952 E164.81716
G1 X126.321 Y110.792 F7800.000
G1 X126.054 Y109.999 F7800.000
G1 X101.079 Y128.144 E165.67468 F1200.000
G1 X98.946 Y128.153 E165.73392
G1 X73.633 Y109.772 E166.60288
G1 X72.967 Y107.719 E166.66283
G1 X82.641 Y77.970 E167.53178 F1200.000
G1 X84.371 Y76.724 E167.59102
G1 X115.628 Y76.724 E168.45927
G1 X117.374 Y77.992 E168.51922
G1 X127.033 Y107.719 E169.38747
G1 X126.382 Y109.750 E169.44671
G1 X126.115 Y109.955 E169.45607
G1 Z2.500 F7800.000
G1 X125.929 Y109.827 F7800.000
G1 X101.209 Y127.787 E170.30484 F3600.000
G1 X98.791 Y127.787 E170.37201
G1 X74.013 Y109.785 E171.22277
G1 X73.266 Y107.485 E171.28994
G1 X82.730 Y78.357 E172.14069
G1 X84.686 Y76.936 E172.20786 F3600.000
G1 X115.314 Y76.936 E173.05862
G1 X117.270 Y78.357 E173.12578
G1 X126.734 Y107.485 E173.97654
G1 X125.988 Y109.782 E174.04361
G1 X125.569 Y109.482 F7800.000
G1 X101.050 Y127.297 E174.88550 F3600.000
G1 X98.951 Y127.297 E174.94381
G1 X74.431 Y109.482 E175.78571
G1 X73.782 Y107.485 E175.84401
G1 X83.148 Y78.661 E176.68591
G1 X84.846 Y77.427 E176.74421 F3600.000
G1 X115.154 Y77.427 E177.58611
G1 X116.852 Y78.661 E177.64442
G1 X126.218 Y107.485 E178.48631
G1 X125.593 Y109.410 E178.54254
G1 X125.184 Y109.202 F7800.000
G1 X100.902 Y126.844 E179.24597 F1800.000
G1 X99.098 Y126.844 E179.28827
G1 X74.816 Y109.202 E179.99170
G1 X74.258 Y107.485 E180.03400
G1 X83.533 Y78.940 E180.73743
G1 X84.993 Y77.879 E180.77974 F1800.000
G1 X115.007 Y77.879 E181.48317
G1 X116.467 Y78.940 E181.52547
G1 X125.742 Y107.485 E182.22890
G1 X125.208 Y109.131 E182.26945
G1 X125.339 Y109.678 F7800.000
G1 X126.078 Y110.433 F7800.000
G1 X101.397 Y128.365 E183.11690 F3600.000
G1 X98.603 Y128.365 E183.19449
G1 X73.522 Y110.142 E184.05568
G1 X72.659 Y107.486 E184.13327
G1 X82.239 Y78.000 E184.99445
G1 X84.499 Y76.358 E185.07204
G1 X115.501 Y76.358 E185.93322
G1 X117.761 Y78.000 E186.01082
G1 X127.341 Y107.486 E186.87200 F3600.000
G1 X126.478 Y110.142 E186.94959
G1 X126.139 Y110.388 E186.96123
G1 X126.367 Y110.830 F7800.000
G1 X101.556 Y128.856 E187.81312 F3600.000
G1 X98.444 Y128.856 E187.89957
G1 X73.104 Y110.445 E188.76962
G1 X72.142 Y107.486 E188.85607
G1 X81.821 Y77.697 E189.72611
G1 X84.339 Y75.868 E189.81257
G1 X115.661 Y75.868 E190.68261
G1 X118.179 Y77.697 E190.76906
G1 X127.858 Y107.486 E191.63910 F3600.000
G1 X126.896 Y110.445 E191.72556
G1 X126.428 Y110.786 E191.74163
G1 X126.633 Y111.196 F7800.000
G1 X101.703 Y129.308 E192.46383 F1800.000
G1 X98.297 Y129.308 E192.54366
G1 X72.719 Y110.725 E193.28463
G1 X71.667 Y107.486 E193.36446
G1 X81.436 Y77.417 E194.10542
G1 X84.192 Y75.415 E194.18526
G1 X115.808 Y75.415 E194.92622
